;FLAVOR:Marlin
;TIME:1673
;Filament used: 0.421862m
;Layer height: 0.32
;MINX:105.4
;MINY:105.4
;MINZ:0.32
;MAXX:114.6
;MAXY:114.6
;MAXZ:9.92
;TARGET_MACHINE.NAME:Creality Ender-3 Pro
;Generated with Cura_SteamEngine 5.10.0
; Ender 3 Custom Start G-code
G92 E0 ; Reset Extruder
G28 ; Home all axes
G1 Z5.0 F3000 ; Move Z Axis up a bit during heating to not damage bed
M104 S175 ; Start heating up the nozzle most of the way
M190 S60 ; Start heating the bed, wait until target temperature reached
M109 S200 ; Finish heating the nozzle
G1 Z2.0 F3000 ; Move Z Axis up little to prevent scratching of Heat Bed
G1 X0.1 Y20 Z0.3 F5000.0 ; Move to start position
G1 X0.1 Y200.0 Z0.3 F1500.0 E15 ; Draw the first line
G1 X0.4 Y200.0 Z0.3 F5000.0 ; Move to side a little
G1 X0.4 Y20 Z0.3 F1500.0 E30 ; Draw the second line
G92 E0 ; Reset Extruder
G1 Z2.0 F3000 ; Move Z Axis up little to prevent scratching of Heat Bed
G1 X5 Y20 Z0.3 F5000.0 ; Move over to prevent blob squish
M92 E20000     ; set extruder steps/mm
M500           ; save to EEPROM
M82 ;absolute extrusion mode
G92 E0
G92 E0
G1 F1500 E-6.5
;LAYER_COUNT:31
;LAYER:0
M107
;MESH:20mm_cube.stl
G0 F6000 X110 Y113.8 Z0.32
;TYPE:WALL-INNER
G1 F1500 E0
G1 F150 X113.8 Y113.8 E0.40444
G1 X113.8 Y106.2 E1.21333
G1 X106.2 Y106.2 E2.02222
G1 X106.2 Y113.8 E2.8311
G1 X110 Y113.8 E3.23555
G0 F6000 X110 Y114.6
;TYPE:WALL-OUTER
G1 F150 X114.6 Y114.6 E3.72514
G1 X114.6 Y105.4 E4.70431
G1 X105.4 Y105.4 E5.68349
G1 X105.4 Y114.6 E6.66267
G1 X110 Y114.6 E7.15226
G0 F6000 X110 Y114.09
G0 X110 Y113.5
G0 X110 Y113.08
;TYPE:SKIN
G1 F150 X106.92 Y113.08 E7.48007
G1 X106.92 Y106.92 E8.1357
G1 X113.08 Y106.92 E8.79132
G1 X113.08 Y113.08 E9.44694
G1 X110 Y113.08 E9.77475
G0 F6000 X110 Y113.5
G0 X108.154 Y113.5
G0 X108.154 Y112.68
G1 F150 X107.32 Y111.845 E9.90036
G0 F6000 X106.5 Y111.845
G0 X106.5 Y110.714
G0 X107.32 Y110.714
G1 F150 X109.285 Y112.68 E10.19621
G0 F6000 X109.285 Y113.5
G0 X110.417 Y113.5
G0 X110.417 Y112.68
G1 F150 X107.32 Y109.582 E10.66244
G0 F6000 X106.5 Y109.582
G0 X106.5 Y108.451
G0 X107.32 Y108.451
G1 F150 X111.548 Y112.68 E11.2989
G0 F6000 X111.548 Y113.5
G0 X113.428 Y113.428
G0 X113.5 Y112.68
G0 X112.68 Y112.68
G1 F150 X107.32 Y107.32 E12.10568
G0 F6000 X106.5 Y107.32
G0 X106.572 Y106.572
G0 X108.451 Y106.5
G0 X108.451 Y107.32
G1 F150 X112.68 Y111.549 E12.74222
G0 F6000 X113.5 Y111.549
G0 X113.5 Y110.418
G0 X112.68 Y110.418
G1 F150 X109.582 Y107.32 E13.20853
G0 F6000 X109.582 Y106.5
G0 X110.714 Y106.5
G0 X110.714 Y107.32
G1 F150 X112.68 Y109.286 E13.50444
G0 F6000 X113.5 Y109.286
G0 X113.5 Y108.155
G0 X112.68 Y108.155
G1 F150 X111.845 Y107.32 E13.63013
M104 S200
;MESH:NONMESH
G0 F300 X111.845 Y107.32 Z0.64
G0 F6000 X111.845 Y106.5
G0 X113.428 Y106.572
G0 X113.428 Y113.428
G0 X110 Y113.8
;TIME_ELAPSED:58.542388
;LAYER:1
;TYPE:WALL-INNER
;MESH:20mm_cube.stl
G1 F150 X113.8 Y113.8 E14.03457
G1 X113.8 Y106.2 E14.84346
G1 X106.2 Y106.2 E15.65234
G1 X106.2 Y113.8 E16.46123
G1 X110 Y113.8 E16.86567
G0 F7500 X110 Y114.6
;TYPE:WALL-OUTER
G1 F150 X114.6 Y114.6 E17.35526
G1 X114.6 Y105.4 E18.33444
G1 X105.4 Y105.4 E19.31362
G1 X105.4 Y114.6 E20.2928
G1 X110 Y114.6 E20.78239
G0 F7500 X110 Y114.09
G0 X110 Y113.5
G0 X110 Y113.08
;TYPE:SKIN
G1 F150 X106.92 Y113.08 E21.1102
G1 X106.92 Y106.92 E21.76582
G1 X113.08 Y106.92 E22.42145
G1 X113.08 Y113.08 E23.07707
G1 X110 Y113.08 E23.40488
G0 F7500 X110 Y113.5
G0 X112.463 Y113.5
G0 X112.463 Y112.68
G1 F150 X112.68 Y112.463 E23.43754
G0 F7500 X113.5 Y112.463
G0 X113.5 Y111.332
G0 X112.68 Y111.332
G1 F150 X111.331 Y112.68 E23.64052
G0 F7500 X111.331 Y113.5
G0 X110.2 Y113.5
G0 X110.2 Y112.68
G1 F150 X112.68 Y110.2 E24.0138
G0 F7500 X113.5 Y110.2
G0 X113.5 Y109.069
G0 X112.68 Y109.069
G1 F150 X109.068 Y112.68 E24.5574
G0 F7500 X109.068 Y113.5
G0 X107.937 Y113.5
G0 X107.937 Y112.68
G1 F150 X112.68 Y107.938 E25.27123
G0 F7500 X112.166 Y107.32
G1 F150 X107.32 Y112.166 E26.00064
G0 F7500 X106.5 Y112.166
G0 X106.5 Y111.035
G0 X107.32 Y111.035
G1 F150 X111.035 Y107.32 E26.55982
G0 F7500 X111.035 Y106.5
G0 X109.903 Y106.5
G0 X109.903 Y107.32
G1 F150 X107.32 Y109.903 E26.94861
G0 F7500 X106.5 Y109.903
G0 X106.5 Y108.772
G0 X107.32 Y108.772
G1 F150 X108.772 Y107.32 E27.16716
G0 F7500 X108.772 Y106.5
G0 X107.641 Y106.5
G0 X107.641 Y107.32
G1 F150 X107.32 Y107.641 E27.21548
;MESH:NONMESH
G0 F300 X107.32 Y107.641 Z0.96
G0 F7500 X106.5 Y107.641
G0 X106.572 Y113.428
G0 X110 Y113.8
;TIME_ELAPSED:112.229512
;LAYER:2
;TYPE:WALL-INNER
;MESH:20mm_cube.stl
G1 F150 X113.8 Y113.8 E27.61992
G1 X113.8 Y106.2 E28.42881
G1 X106.2 Y106.2 E29.23769
G1 X106.2 Y113.8 E30.04658
G1 X110 Y113.8 E30.45102
G0 F9000 X110 Y114.6
;TYPE:WALL-OUTER
G1 F150 X114.6 Y114.6 E30.94061
G1 X114.6 Y105.4 E31.91979
G1 X105.4 Y105.4 E32.89897
G1 X105.4 Y114.6 E33.87815
G1 X110 Y114.6 E34.36774
G0 F9000 X110 Y114.09
G0 X110 Y113.5
G0 X110 Y113.08
;TYPE:SKIN
G1 F150 X106.92 Y113.08 E34.69555
G1 X106.92 Y106.92 E35.35117
G1 X113.08 Y106.92 E36.00679
G1 X113.08 Y113.08 E36.66242
G1 X110 Y113.08 E36.99023
G0 F9000 X110 Y113.5
G0 X108.154 Y113.5
G0 X108.154 Y112.68
G1 F150 X107.32 Y111.845 E37.11584
G0 F9000 X106.5 Y111.845
G0 X106.5 Y110.714
G0 X107.32 Y110.714
G1 F150 X109.285 Y112.68 E37.41168
G0 F9000 X109.285 Y113.5
G0 X110.417 Y113.5
G0 X110.417 Y112.68
G1 F150 X107.32 Y109.582 E37.87791
G0 F9000 X106.5 Y109.582
G0 X106.5 Y108.451
G0 X107.32 Y108.451
G1 F150 X111.548 Y112.68 E38.51438
G0 F9000 X111.548 Y113.5
G0 X113.428 Y113.428
G0 X113.5 Y112.68
G0 X112.68 Y112.68
G1 F150 X107.32 Y107.32 E39.32116
G0 F9000 X106.5 Y107.32
G0 X106.572 Y106.572
G0 X108.451 Y106.5
G0 X108.451 Y107.32
G1 F150 X112.68 Y111.549 E39.9577
G0 F9000 X113.5 Y111.549
G0 X113.5 Y110.418
G0 X112.68 Y110.418
G1 F150 X109.582 Y107.32 E40.424
G0 F9000 X109.582 Y106.5
G0 X110.714 Y106.5
G0 X110.714 Y107.32
G1 F150 X112.68 Y109.286 E40.71992
G0 F9000 X113.5 Y109.286
G0 X113.5 Y108.155
G0 X112.68 Y108.155
G1 F150 X111.845 Y107.32 E40.8456
;MESH:NONMESH
G0 F300 X111.845 Y107.32 Z1.28
G0 F9000 X111.845 Y106.5
G0 X113.428 Y106.572
G0 X113.428 Y113.428
G0 X110 Y113.8
;TIME_ELAPSED:166.258642
;LAYER:3
;TYPE:WALL-INNER
;MESH:20mm_cube.stl
G1 F150 X113.8 Y113.8 E41.25005
G1 X113.8 Y106.2 E42.05893
G1 X106.2 Y106.2 E42.86782
G1 X106.2 Y113.8 E43.67671
G1 X110 Y113.8 E44.08115
G0 F9000 X110 Y114.6
;TYPE:WALL-OUTER
G1 F150 X114.6 Y114.6 E44.57074
G1 X114.6 Y105.4 E45.54992
G1 X105.4 Y105.4 E46.5291
G1 X105.4 Y114.6 E47.50827
G1 X110 Y114.6 E47.99786
G0 F9000 X110 Y114.09
G0 X110 Y113.5
G0 X110 Y113.08
;TYPE:SKIN
G1 F150 X106.92 Y113.08 E48.32567
G1 X106.92 Y106.92 E48.9813
G1 X113.08 Y106.92 E49.63692
G1 X113.08 Y113.08 E50.29255
G1 X110 Y113.08 E50.62036
G0 F9000 X110 Y113.5
G0 X112.463 Y113.5
G0 X112.463 Y112.68
G1 F150 X112.68 Y112.463 E50.65302
G0 F9000 X113.5 Y112.463
G0 X113.5 Y111.332
G0 X112.68 Y111.332
G1 F150 X111.331 Y112.68 E50.85599
G0 F9000 X111.331 Y113.5
G0 X110.2 Y113.5
G0 X110.2 Y112.68
G1 F150 X112.68 Y110.2 E51.22928
G0 F9000 X113.5 Y110.2
G0 X113.5 Y109.069
G0 X112.68 Y109.069
G1 F150 X109.068 Y112.68 E51.77288
G0 F9000 X109.068 Y113.5
G0 X107.937 Y113.5
G0 X107.937 Y112.68
G1 F150 X112.68 Y107.938 E52.48671
G0 F9000 X112.166 Y107.32
G1 F150 X107.32 Y112.166 E53.21612
G0 F9000 X106.5 Y112.166
G0 X106.5 Y111.035
G0 X107.32 Y111.035
G1 F150 X111.035 Y107.32 E53.77529
G0 F9000 X111.035 Y106.5
G0 X109.903 Y106.5
G0 X109.903 Y107.32
G1 F150 X107.32 Y109.903 E54.16408
G0 F9000 X106.5 Y109.903
G0 X106.5 Y108.772
G0 X107.32 Y108.772
G1 F150 X108.772 Y107.32 E54.38264
G0 F9000 X108.772 Y106.5
G0 X107.641 Y106.5
G0 X107.641 Y107.32
G1 F150 X107.32 Y107.641 E54.43095
;MESH:NONMESH
G0 F300 X107.32 Y107.641 Z1.6
G0 F9000 X106.5 Y107.641
G0 X106.572 Y113.428
G0 X110 Y113.8
;TIME_ELAPSED:219.947329
;LAYER:4
;TYPE:WALL-INNER
;MESH:20mm_cube.stl
G1 F150 X113.8 Y113.8 E54.83539
G1 X113.8 Y106.2 E55.64428
G1 X106.2 Y106.2 E56.45317
G1 X106.2 Y113.8 E57.26205
G1 X110 Y113.8 E57.6665
G0 F9000 X110 Y114.6
;TYPE:WALL-OUTER
G1 F150 X114.6 Y114.6 E58.15609
G1 X114.6 Y105.4 E59.13527
G1 X105.4 Y105.4 E60.11444
G1 X105.4 Y114.6 E61.09362
G1 X110 Y114.6 E61.58321
G0 F9000 X110 Y114.09
G0 X110 Y113.5
G0 X110 Y113.08
;TYPE:SKIN
G1 F150 X106.92 Y113.08 E61.91102
G1 X106.92 Y106.92 E62.56665
G1 X113.08 Y106.92 E63.22227
G1 X113.08 Y113.08 E63.87789
G1 X110 Y113.08 E64.20571
G0 F9000 X110 Y113.5
G0 X108.154 Y113.5
G0 X108.154 Y112.68
G1 F150 X107.32 Y111.845 E64.33131
G0 F9000 X106.5 Y111.845
G0 X106.5 Y110.714
G0 X107.32 Y110.714
G1 F150 X109.285 Y112.68 E64.62716
G0 F9000 X109.285 Y113.5
G0 X110.417 Y113.5
G0 X110.417 Y112.68
G1 F150 X107.32 Y109.582 E65.09339
G0 F9000 X106.5 Y109.582
G0 X106.5 Y108.451
G0 X107.32 Y108.451
G1 F150 X111.548 Y112.68 E65.72985
G0 F9000 X111.548 Y113.5
G0 X113.428 Y113.428
G0 X113.5 Y112.68
G0 X112.68 Y112.68
G1 F150 X107.32 Y107.32 E66.53663
G0 F9000 X106.5 Y107.32
G0 X106.572 Y106.572
G0 X108.451 Y106.5
G0 X108.451 Y107.32
G1 F150 X112.68 Y111.549 E67.17317
G0 F9000 X113.5 Y111.549
G0 X113.5 Y110.418
G0 X112.68 Y110.418
G1 F150 X109.582 Y107.32 E67.63948
G0 F9000 X109.582 Y106.5
G0 X110.714 Y106.5
G0 X110.714 Y107.32
G1 F150 X112.68 Y109.286 E67.9354
G0 F9000 X113.5 Y109.286
G0 X113.5 Y108.155
G0 X112.68 Y108.155
G1 F150 X111.845 Y107.32 E68.06108
;MESH:NONMESH
G0 F300 X111.845 Y107.32 Z1.92
G0 F9000 X111.845 Y106.5
G0 X113.428 Y106.572
G0 X113.428 Y113.428
G0 X110 Y113.8
;TIME_ELAPSED:273.976459
;LAYER:5
;TYPE:WALL-INNER
;MESH:20mm_cube.stl
G1 F150 X113.8 Y113.8 E68.46552
G1 X113.8 Y106.2 E69.27441
G1 X106.2 Y106.2 E70.0833
G1 X106.2 Y113.8 E70.89218
G1 X110 Y113.8 E71.29663
G0 F9000 X110 Y114.6
;TYPE:WALL-OUTER
G1 F150 X114.6 Y114.6 E71.78621
G1 X114.6 Y105.4 E72.76539
G1 X105.4 Y105.4 E73.74457
G1 X105.4 Y114.6 E74.72375
G1 X110 Y114.6 E75.21334
G0 F9000 X110 Y114.09
G0 X110 Y113.5
G0 X110 Y113.08
;TYPE:SKIN
G1 F150 X106.92 Y113.08 E75.54115
G1 X106.92 Y106.92 E76.19677
G1 X113.08 Y106.92 E76.8524
G1 X113.08 Y113.08 E77.50802
G1 X110 Y113.08 E77.83583
G0 F9000 X110 Y113.5
G0 X112.463 Y113.5
G0 X112.463 Y112.68
G1 F150 X112.68 Y112.463 E77.8685
G0 F9000 X113.5 Y112.463
G0 X113.5 Y111.332
G0 X112.68 Y111.332
G1 F150 X111.331 Y112.68 E78.07147
G0 F9000 X111.331 Y113.5
G0 X110.2 Y113.5
G0 X110.2 Y112.68
G1 F150 X112.68 Y110.2 E78.44476
G0 F9000 X113.5 Y110.2
G0 X113.5 Y109.069
G0 X112.68 Y109.069
G1 F150 X109.068 Y112.68 E78.98835
G0 F9000 X109.068 Y113.5
G0 X107.937 Y113.5
G0 X107.937 Y112.68
G1 F150 X112.68 Y107.938 E79.70218
G0 F9000 X112.166 Y107.32
G1 F150 X107.32 Y112.166 E80.4316
G0 F9000 X106.5 Y112.166
G0 X106.5 Y111.035
G0 X107.32 Y111.035
G1 F150 X111.035 Y107.32 E80.99077
G0 F9000 X111.035 Y106.5
G0 X109.903 Y106.5
G0 X109.903 Y107.32
G1 F150 X107.32 Y109.903 E81.37956
G0 F9000 X106.5 Y109.903
G0 X106.5 Y108.772
G0 X107.32 Y108.772
G1 F150 X108.772 Y107.32 E81.59811
G0 F9000 X108.772 Y106.5
G0 X107.641 Y106.5
G0 X107.641 Y107.32
G1 F150 X107.32 Y107.641 E81.64643
;MESH:NONMESH
G0 F300 X107.32 Y107.641 Z2.24
G0 F9000 X106.5 Y107.641
G0 X106.572 Y113.428
G0 X110 Y113.8
;TIME_ELAPSED:327.665146
;LAYER:6
;TYPE:WALL-INNER
;MESH:20mm_cube.stl
G1 F150 X113.8 Y113.8 E82.05087
G1 X113.8 Y106.2 E82.85976
G1 X106.2 Y106.2 E83.66864
G1 X106.2 Y113.8 E84.47753
G1 X110 Y113.8 E84.88197
G0 F9000 X110 Y114.6
;TYPE:WALL-OUTER
G1 F150 X114.6 Y114.6 E85.37156
G1 X114.6 Y105.4 E86.35074
G1 X105.4 Y105.4 E87.32992
G1 X105.4 Y114.6 E88.3091
G1 X110 Y114.6 E88.79869
G0 F9000 X110 Y114.09
G0 X110 Y113.5
G0 X110 Y113.08
;TYPE:SKIN
G1 F150 X106.92 Y113.08 E89.1265
G1 X106.92 Y106.92 E89.78212
G1 X113.08 Y106.92 E90.43775
G1 X113.08 Y113.08 E91.09337
G1 X110 Y113.08 E91.42118
G0 F9000 X110 Y113.5
G0 X108.154 Y113.5
G0 X108.154 Y112.68
G1 F150 X107.32 Y111.845 E91.54679
G0 F9000 X106.5 Y111.845
G0 X106.5 Y110.714
G0 X107.32 Y110.714
G1 F150 X109.285 Y112.68 E91.84263
G0 F9000 X109.285 Y113.5
G0 X110.417 Y113.5
G0 X110.417 Y112.68
G1 F150 X107.32 Y109.582 E92.30886
G0 F9000 X106.5 Y109.582
G0 X106.5 Y108.451
G0 X107.32 Y108.451
G1 F150 X111.548 Y112.68 E92.94533
G0 F9000 X111.548 Y113.5
G0 X113.428 Y113.428
G0 X113.5 Y112.68
G0 X112.68 Y112.68
G1 F150 X107.32 Y107.32 E93.75211
G0 F9000 X106.5 Y107.32
G0 X106.572 Y106.572
G0 X108.451 Y106.5
G0 X108.451 Y107.32
G1 F150 X112.68 Y111.549 E94.38865
G0 F9000 X113.5 Y111.549
G0 X113.5 Y110.418
G0 X112.68 Y110.418
G1 F150 X109.582 Y107.32 E94.85495
G0 F9000 X109.582 Y106.5
G0 X110.714 Y106.5
G0 X110.714 Y107.32
G1 F150 X112.68 Y109.286 E95.15087
G0 F9000 X113.5 Y109.286
G0 X113.5 Y108.155
G0 X112.68 Y108.155
G1 F150 X111.845 Y107.32 E95.27655
;MESH:NONMESH
G0 F300 X111.845 Y107.32 Z2.56
G0 F9000 X111.845 Y106.5
G0 X113.428 Y106.572
G0 X113.428 Y113.428
G0 X110 Y113.8
;TIME_ELAPSED:381.694276
;LAYER:7
;TYPE:WALL-INNER
;MESH:20mm_cube.stl
G1 F150 X113.8 Y113.8 E95.681
G1 X113.8 Y106.2 E96.48988
G1 X106.2 Y106.2 E97.29877
G1 X106.2 Y113.8 E98.10766
G1 X110 Y113.8 E98.5121
G0 F9000 X110 Y114.6
;TYPE:WALL-OUTER
G1 F150 X114.6 Y114.6 E99.00169
G1 X114.6 Y105.4 E99.98087
G1 X105.4 Y105.4 E100.96005
G1 X105.4 Y114.6 E101.93923
G1 X110 Y114.6 E102.42881
G0 F9000 X110 Y114.09
G0 X110 Y113.5
G0 X110 Y113.08
;TYPE:SKIN
G1 F150 X106.92 Y113.08 E102.75663
G1 X106.92 Y106.92 E103.41225
G1 X113.08 Y106.92 E104.06787
G1 X113.08 Y113.08 E104.7235
G1 X110 Y113.08 E105.05131
G0 F9000 X110 Y113.5
G0 X112.463 Y113.5
G0 X112.463 Y112.68
G1 F150 X112.68 Y112.463 E105.08397
G0 F9000 X113.5 Y112.463
G0 X113.5 Y111.332
G0 X112.68 Y111.332
G1 F150 X111.331 Y112.68 E105.28695
G0 F9000 X111.331 Y113.5
G0 X110.2 Y113.5
G0 X110.2 Y112.68
G1 F150 X112.68 Y110.2 E105.66023
G0 F9000 X113.5 Y110.2
G0 X113.5 Y109.069
G0 X112.68 Y109.069
G1 F150 X109.068 Y112.68 E106.20383
G0 F9000 X109.068 Y113.5
G0 X107.937 Y113.5
G0 X107.937 Y112.68
G1 F150 X112.68 Y107.938 E106.91766
G0 F9000 X112.166 Y107.32
G1 F150 X107.32 Y112.166 E107.64707
G0 F9000 X106.5 Y112.166
G0 X106.5 Y111.035
G0 X107.32 Y111.035
G1 F150 X111.035 Y107.32 E108.20625
G0 F9000 X111.035 Y106.5
G0 X109.903 Y106.5
G0 X109.903 Y107.32
G1 F150 X107.32 Y109.903 E108.59503
G0 F9000 X106.5 Y109.903
G0 X106.5 Y108.772
G0 X107.32 Y108.772
G1 F150 X108.772 Y107.32 E108.81359
G0 F9000 X108.772 Y106.5
G0 X107.641 Y106.5
G0 X107.641 Y107.32
G1 F150 X107.32 Y107.641 E108.8619
;MESH:NONMESH
G0 F300 X107.32 Y107.641 Z2.88
G0 F9000 X106.5 Y107.641
G0 X106.572 Y113.428
G0 X110 Y113.8
;TIME_ELAPSED:435.382963
;LAYER:8
;TYPE:WALL-INNER
;MESH:20mm_cube.stl
G1 F150 X113.8 Y113.8 E109.26635
G1 X113.8 Y106.2 E110.07523
G1 X106.2 Y106.2 E110.88412
G1 X106.2 Y113.8 E111.69301
G1 X110 Y113.8 E112.09745
G0 F9000 X110 Y114.6
;TYPE:WALL-OUTER
G1 F150 X114.6 Y114.6 E112.58704
G1 X114.6 Y105.4 E113.56622
G1 X105.4 Y105.4 E114.5454
G1 X105.4 Y114.6 E115.52457
G1 X110 Y114.6 E116.01416
G0 F9000 X110 Y114.09
G0 X110 Y113.5
G0 X110 Y113.08
;TYPE:SKIN
G1 F150 X106.92 Y113.08 E116.34197
G1 X106.92 Y106.92 E116.9976
G1 X113.08 Y106.92 E117.65322
G1 X113.08 Y113.08 E118.30885
G1 X110 Y113.08 E118.63666
G0 F9000 X110 Y113.5
G0 X108.154 Y113.5
G0 X108.154 Y112.68
G1 F150 X107.32 Y111.845 E118.76227
G0 F9000 X106.5 Y111.845
G0 X106.5 Y110.714
G0 X107.32 Y110.714
G1 F150 X109.285 Y112.68 E119.05811
G0 F9000 X109.285 Y113.5
G0 X110.417 Y113.5
G0 X110.417 Y112.68
G1 F150 X107.32 Y109.582 E119.52434
G0 F9000 X106.5 Y109.582
G0 X106.5 Y108.451
G0 X107.32 Y108.451
G1 F150 X111.548 Y112.68 E120.16081
G0 F9000 X111.548 Y113.5
G0 X113.428 Y113.428
G0 X113.5 Y112.68
G0 X112.68 Y112.68
G1 F150 X107.32 Y107.32 E120.96758
G0 F9000 X106.5 Y107.32
G0 X106.572 Y106.572
G0 X108.451 Y106.5
G0 X108.451 Y107.32
G1 F150 X112.68 Y111.549 E121.60412
G0 F9000 X113.5 Y111.549
G0 X113.5 Y110.418
G0 X112.68 Y110.418
G1 F150 X109.582 Y107.32 E122.07043
G0 F9000 X109.582 Y106.5
G0 X110.714 Y106.5
G0 X110.714 Y107.32
G1 F150 X112.68 Y109.286 E122.36635
G0 F9000 X113.5 Y109.286
G0 X113.5 Y108.155
G0 X112.68 Y108.155
G1 F150 X111.845 Y107.32 E122.49203
;MESH:NONMESH
G0 F300 X111.845 Y107.32 Z3.2
G0 F9000 X111.845 Y106.5
G0 X113.428 Y106.572
G0 X113.428 Y113.428
G0 X110 Y113.8
;TIME_ELAPSED:489.412093
;LAYER:9
;TYPE:WALL-INNER
