;FLAVOR:Marlin
;TIME:1754
;Filament used: 4.21862m
;Layer height: 0.32
;MINX:105.4
;MINY:105.4
;MINZ:0.32
;MAXX:114.6
;MAXY:114.6
;MAXZ:9.92
;TARGET_MACHINE.NAME:Creality Ender-3 Pro
;Generated with Cura_SteamEngine 5.10.0
; Ender 3 Custom Start G-code
G92 E0 ; Reset Extruder
G28 ; Home all axes
G1 Z5.0 F3000 ; Move Z Axis up a bit during heating to not damage bed
M104 S175 ; Start heating up the nozzle most of the way
M190 S0 ; Start heating the bed, wait until target temperature reached
M109 S200 ; Finish heating the nozzle
G1 Z2.0 F3000 ; Move Z Axis up little to prevent scratching of Heat Bed
G1 X0.1 Y20 Z0.3 F5000.0 ; Move to start position
G1 X0.1 Y200.0 Z0.3 F1500.0 E15 ; Draw the first line
G1 X0.4 Y200.0 Z0.3 F5000.0 ; Move to side a little
G1 X0.4 Y20 Z0.3 F1500.0 E30 ; Draw the second line
G92 E0 ; Reset Extruder
G1 Z2.0 F3000 ; Move Z Axis up little to prevent scratching of Heat Bed
G1 X5 Y20 Z0.3 F5000.0 ; Move over to prevent blob squish
M92 E20000     ; set extruder steps/mm
M500           ; save to EEPROM
M82 ;absolute extrusion mode
G92 E0
G92 E0
G1 F1500 E-6.5
;LAYER_COUNT:31
;LAYER:0
M107
;MESH:20mm_cube.stl
G0 F6000 X110 Y113.8 Z0.32
;TYPE:WALL-INNER
G1 F1500 E0
G1 F150 X113.8 Y113.8 E4.04443
G1 X113.8 Y106.2 E12.1333
G1 X106.2 Y106.2 E20.22216
G1 X106.2 Y113.8 E28.31103
G1 X110 Y113.8 E32.35546
G0 F6000 X110 Y114.6
;TYPE:WALL-OUTER
G1 F150 X114.6 Y114.6 E37.25135
G1 X114.6 Y105.4 E47.04314
G1 X105.4 Y105.4 E56.83492
G1 X105.4 Y114.6 E66.6267
G1 X110 Y114.6 E71.52259
G0 F6000 X110 Y114.09
G0 X110 Y113.5
G0 X110 Y113.08
;TYPE:SKIN
G1 F150 X106.92 Y113.08 E74.80071
G1 X106.92 Y106.92 E81.35695
G1 X113.08 Y106.92 E87.91319
G1 X113.08 Y113.08 E94.46943
G1 X110 Y113.08 E97.74755
G0 F6000 X110 Y113.5
G0 X108.154 Y113.5
G0 X108.154 Y112.68
G1 F150 X107.32 Y111.845 E99.00362
G0 F6000 X106.5 Y111.845
G0 X106.5 Y110.714
G0 X107.32 Y110.714
G1 F150 X109.285 Y112.68 E101.96206
G0 F6000 X109.285 Y113.5
G0 X110.417 Y113.5
G0 X110.417 Y112.68
G1 F150 X107.32 Y109.582 E106.62436
G0 F6000 X106.5 Y109.582
G0 X106.5 Y108.451
G0 X107.32 Y108.451
G1 F150 X111.548 Y112.68 E112.98902
G0 F6000 X111.548 Y113.5
G0 X113.428 Y113.428
G0 X113.5 Y112.68
G0 X112.68 Y112.68
G1 F150 X107.32 Y107.32 E121.05679
G0 F6000 X106.5 Y107.32
G0 X106.572 Y106.572
G0 X108.451 Y106.5
G0 X108.451 Y107.32
G1 F150 X112.68 Y111.549 E127.42221
G0 F6000 X113.5 Y111.549
G0 X113.5 Y110.418
G0 X112.68 Y110.418
G1 F150 X109.582 Y107.32 E132.08526
G0 F6000 X109.582 Y106.5
G0 X110.714 Y106.5
G0 X110.714 Y107.32
G1 F150 X112.68 Y109.286 E135.04445
G0 F6000 X113.5 Y109.286
G0 X113.5 Y108.155
G0 X112.68 Y108.155
G1 F150 X111.845 Y107.32 E136.30128
M104 S200
;MESH:NONMESH
G0 F300 X111.845 Y107.32 Z0.64
G0 F6000 X111.845 Y106.5
G0 X113.428 Y106.572
G0 X113.428 Y113.428
G0 X110 Y113.8
;TIME_ELAPSED:58.542197
;LAYER:1
;TYPE:WALL-INNER
;MESH:20mm_cube.stl
G1 F150 X113.8 Y113.8 E140.34571
G1 X113.8 Y106.2 E148.43457
G1 X106.2 Y106.2 E156.52344
G1 X106.2 Y113.8 E164.6123
G1 X110 Y113.8 E168.65673
G0 F7500 X110 Y114.6
;TYPE:WALL-OUTER
G1 F150 X114.6 Y114.6 E173.55263
G1 X114.6 Y105.4 E183.34441
G1 X105.4 Y105.4 E193.13619
G1 X105.4 Y114.6 E202.92798
G1 X110 Y114.6 E207.82387
G0 F7500 X110 Y114.09
G0 X110 Y113.5
G0 X110 Y113.08
;TYPE:SKIN
G1 F150 X106.92 Y113.08 E211.10199
G1 X106.92 Y106.92 E217.65823
G1 X113.08 Y106.92 E224.21446
G1 X113.08 Y113.08 E230.7707
G1 X110 Y113.08 E234.04882
G0 F7500 X110 Y113.5
G0 X112.463 Y113.5
G0 X112.463 Y112.68
G1 F150 X112.68 Y112.463 E234.37545
G0 F7500 X113.5 Y112.463
G0 X113.5 Y111.332
G0 X112.68 Y111.332
G1 F150 X111.331 Y112.68 E236.40518
G0 F7500 X111.331 Y113.5
G0 X110.2 Y113.5
G0 X110.2 Y112.68
G1 F150 X112.68 Y110.2 E240.13803
G0 F7500 X113.5 Y110.2
G0 X113.5 Y109.069
G0 X112.68 Y109.069
G1 F150 X109.068 Y112.68 E245.574
G0 F7500 X109.068 Y113.5
G0 X107.937 Y113.5
G0 X107.937 Y112.68
G1 F150 X112.68 Y107.938 E252.71232
G0 F7500 X112.166 Y107.32
G1 F150 X107.32 Y112.166 E260.00644
G0 F7500 X106.5 Y112.166
G0 X106.5 Y111.035
G0 X107.32 Y111.035
G1 F150 X111.035 Y107.32 E265.59819
G0 F7500 X111.035 Y106.5
G0 X109.903 Y106.5
G0 X109.903 Y107.32
G1 F150 X107.32 Y109.903 E269.48607
G0 F7500 X106.5 Y109.903
G0 X106.5 Y108.772
G0 X107.32 Y108.772
G1 F150 X108.772 Y107.32 E271.67159
G0 F7500 X108.772 Y106.5
G0 X107.641 Y106.5
G0 X107.641 Y107.32
G1 F150 X107.32 Y107.641 E272.15476
;MESH:NONMESH
G0 F300 X107.32 Y107.641 Z0.96
G0 F7500 X106.5 Y107.641
G0 X106.572 Y113.428
G0 X110 Y113.8
;TIME_ELAPSED:112.229321
;LAYER:2
;TYPE:WALL-INNER
;MESH:20mm_cube.stl
G1 F150 X113.8 Y113.8 E276.19919
G1 X113.8 Y106.2 E284.28806
G1 X106.2 Y106.2 E292.37692
G1 X106.2 Y113.8 E300.46579
G1 X110 Y113.8 E304.51022
G0 F9000 X110 Y114.6
;TYPE:WALL-OUTER
G1 F150 X114.6 Y114.6 E309.40611
G1 X114.6 Y105.4 E319.19789
G1 X105.4 Y105.4 E328.98968
G1 X105.4 Y114.6 E338.78146
G1 X110 Y114.6 E343.67735
G0 F9000 X110 Y114.09
G0 X110 Y113.5
G0 X110 Y113.08
;TYPE:SKIN
G1 F150 X106.92 Y113.08 E346.95547
G1 X106.92 Y106.92 E353.51171
G1 X113.08 Y106.92 E360.06795
G1 X113.08 Y113.08 E366.62419
G1 X110 Y113.08 E369.9023
G0 F9000 X110 Y113.5
G0 X108.154 Y113.5
G0 X108.154 Y112.68
G1 F150 X107.32 Y111.845 E371.15838
G0 F9000 X106.5 Y111.845
G0 X106.5 Y110.714
G0 X107.32 Y110.714
G1 F150 X109.285 Y112.68 E374.11681
G0 F9000 X109.285 Y113.5
G0 X110.417 Y113.5
G0 X110.417 Y112.68
G1 F150 X107.32 Y109.582 E378.77911
G0 F9000 X106.5 Y109.582
G0 X106.5 Y108.451
G0 X107.32 Y108.451
G1 F150 X111.548 Y112.68 E385.14378
G0 F9000 X111.548 Y113.5
G0 X113.428 Y113.428
G0 X113.5 Y112.68
G0 X112.68 Y112.68
G1 F150 X107.32 Y107.32 E393.21155
G0 F9000 X106.5 Y107.32
G0 X106.572 Y106.572
G0 X108.451 Y106.5
G0 X108.451 Y107.32
G1 F150 X112.68 Y111.549 E399.57697
G0 F9000 X113.5 Y111.549
G0 X113.5 Y110.418
G0 X112.68 Y110.418
G1 F150 X109.582 Y107.32 E404.24002
G0 F9000 X109.582 Y106.5
G0 X110.714 Y106.5
G0 X110.714 Y107.32
G1 F150 X112.68 Y109.286 E407.19921
G0 F9000 X113.5 Y109.286
G0 X113.5 Y108.155
G0 X112.68 Y108.155
G1 F150 X111.845 Y107.32 E408.45603
;MESH:NONMESH
G0 F300 X111.845 Y107.32 Z1.28
G0 F9000 X111.845 Y106.5
G0 X113.428 Y106.572
G0 X113.428 Y113.428
G0 X110 Y113.8
;TIME_ELAPSED:166.258451
;LAYER:3
;TYPE:WALL-INNER
;MESH:20mm_cube.stl
G1 F150 X113.8 Y113.8 E412.50047
G1 X113.8 Y106.2 E420.58933
G1 X106.2 Y106.2 E428.6782
G1 X106.2 Y113.8 E436.76706
G1 X110 Y113.8 E440.81149
G0 F9000 X110 Y114.6
;TYPE:WALL-OUTER
G1 F150 X114.6 Y114.6 E445.70738
G1 X114.6 Y105.4 E455.49917
G1 X105.4 Y105.4 E465.29095
G1 X105.4 Y114.6 E475.08274
G1 X110 Y114.6 E479.97863
G0 F9000 X110 Y114.09
G0 X110 Y113.5
G0 X110 Y113.08
;TYPE:SKIN
G1 F150 X106.92 Y113.08 E483.25675
G1 X106.92 Y106.92 E489.81298
G1 X113.08 Y106.92 E496.36922
G1 X113.08 Y113.08 E502.92546
G1 X110 Y113.08 E506.20358
G0 F9000 X110 Y113.5
G0 X112.463 Y113.5
G0 X112.463 Y112.68
G1 F150 X112.68 Y112.463 E506.5302
G0 F9000 X113.5 Y112.463
G0 X113.5 Y111.332
G0 X112.68 Y111.332
G1 F150 X111.331 Y112.68 E508.55994
G0 F9000 X111.331 Y113.5
G0 X110.2 Y113.5
G0 X110.2 Y112.68
G1 F150 X112.68 Y110.2 E512.29279
G0 F9000 X113.5 Y110.2
G0 X113.5 Y109.069
G0 X112.68 Y109.069
G1 F150 X109.068 Y112.68 E517.72876
G0 F9000 X109.068 Y113.5
G0 X107.937 Y113.5
G0 X107.937 Y112.68
G1 F150 X112.68 Y107.938 E524.86708
G0 F9000 X112.166 Y107.32
G1 F150 X107.32 Y112.166 E532.16119
G0 F9000 X106.5 Y112.166
G0 X106.5 Y111.035
G0 X107.32 Y111.035
G1 F150 X111.035 Y107.32 E537.75294
G0 F9000 X111.035 Y106.5
G0 X109.903 Y106.5
G0 X109.903 Y107.32
G1 F150 X107.32 Y109.903 E541.64083
G0 F9000 X106.5 Y109.903
G0 X106.5 Y108.772
G0 X107.32 Y108.772
G1 F150 X108.772 Y107.32 E543.82635
G0 F9000 X108.772 Y106.5
G0 X107.641 Y106.5
G0 X107.641 Y107.32
G1 F150 X107.32 Y107.641 E544.30952
;MESH:NONMESH
G0 F300 X107.32 Y107.641 Z1.6
G0 F9000 X106.5 Y107.641
G0 X106.572 Y113.428
G0 X110 Y113.8
;TIME_ELAPSED:219.947138
;LAYER:4
;TYPE:WALL-INNER
;MESH:20mm_cube.stl
G1 F150 X113.8 Y113.8 E548.35395
G1 X113.8 Y106.2 E556.44281
G1 X106.2 Y106.2 E564.53168
G1 X106.2 Y113.8 E572.62054
G1 X110 Y113.8 E576.66498
G0 F9000 X110 Y114.6
;TYPE:WALL-OUTER
G1 F150 X114.6 Y114.6 E581.56087
G1 X114.6 Y105.4 E591.35265
G1 X105.4 Y105.4 E601.14444
G1 X105.4 Y114.6 E610.93622
G1 X110 Y114.6 E615.83211
G0 F9000 X110 Y114.09
G0 X110 Y113.5
G0 X110 Y113.08
;TYPE:SKIN
G1 F150 X106.92 Y113.08 E619.11023
G1 X106.92 Y106.92 E625.66647
G1 X113.08 Y106.92 E632.22271
G1 X113.08 Y113.08 E638.77894
G1 X110 Y113.08 E642.05706
G0 F9000 X110 Y113.5
G0 X108.154 Y113.5
G0 X108.154 Y112.68
G1 F150 X107.32 Y111.845 E643.31314
G0 F9000 X106.5 Y111.845
G0 X106.5 Y110.714
G0 X107.32 Y110.714
G1 F150 X109.285 Y112.68 E646.27157
G0 F9000 X109.285 Y113.5
G0 X110.417 Y113.5
G0 X110.417 Y112.68
G1 F150 X107.32 Y109.582 E650.93387
G0 F9000 X106.5 Y109.582
G0 X106.5 Y108.451
G0 X107.32 Y108.451
G1 F150 X111.548 Y112.68 E657.29853
G0 F9000 X111.548 Y113.5
G0 X113.428 Y113.428
G0 X113.5 Y112.68
G0 X112.68 Y112.68
G1 F150 X107.32 Y107.32 E665.36631
G0 F9000 X106.5 Y107.32
G0 X106.572 Y106.572
G0 X108.451 Y106.5
G0 X108.451 Y107.32
G1 F150 X112.68 Y111.549 E671.73172
G0 F9000 X113.5 Y111.549
G0 X113.5 Y110.418
G0 X112.68 Y110.418
G1 F150 X109.582 Y107.32 E676.39478
G0 F9000 X109.582 Y106.5
G0 X110.714 Y106.5
G0 X110.714 Y107.32
G1 F150 X112.68 Y109.286 E679.35396
G0 F9000 X113.5 Y109.286
G0 X113.5 Y108.155
G0 X112.68 Y108.155
G1 F150 X111.845 Y107.32 E680.61079
;MESH:NONMESH
G0 F300 X111.845 Y107.32 Z1.92
G0 F9000 X111.845 Y106.5
G0 X113.428 Y106.572
G0 X113.428 Y113.428
G0 X110 Y113.8
;TIME_ELAPSED:273.976268
;LAYER:5
;TYPE:WALL-INNER
;MESH:20mm_cube.stl
G1 F150 X113.8 Y113.8 E684.65522
G1 X113.8 Y106.2 E692.74409
G1 X106.2 Y106.2 E700.83295
G1 X106.2 Y113.8 E708.92182
G1 X110 Y113.8 E712.96625
G0 F9000 X110 Y114.6
;TYPE:WALL-OUTER
G1 F150 X114.6 Y114.6 E717.86214
G1 X114.6 Y105.4 E727.65393
G1 X105.4 Y105.4 E737.44571
G1 X105.4 Y114.6 E747.23749
G1 X110 Y114.6 E752.13339
G0 F9000 X110 Y114.09
G0 X110 Y113.5
G0 X110 Y113.08
;TYPE:SKIN
G1 F150 X106.92 Y113.08 E755.4115
G1 X106.92 Y106.92 E761.96774
G1 X113.08 Y106.92 E768.52398
G1 X113.08 Y113.08 E775.08022
G1 X110 Y113.08 E778.35834
G0 F9000 X110 Y113.5
G0 X112.463 Y113.5
G0 X112.463 Y112.68
G1 F150 X112.68 Y112.463 E778.68496
G0 F9000 X113.5 Y112.463
G0 X113.5 Y111.332
G0 X112.68 Y111.332
G1 F150 X111.331 Y112.68 E780.7147
G0 F9000 X111.331 Y113.5
G0 X110.2 Y113.5
G0 X110.2 Y112.68
G1 F150 X112.68 Y110.2 E784.44755
G0 F9000 X113.5 Y110.2
G0 X113.5 Y109.069
G0 X112.68 Y109.069
G1 F150 X109.068 Y112.68 E789.88352
G0 F9000 X109.068 Y113.5
G0 X107.937 Y113.5
G0 X107.937 Y112.68
G1 F150 X112.68 Y107.938 E797.02184
G0 F9000 X112.166 Y107.32
G1 F150 X107.32 Y112.166 E804.31595
G0 F9000 X106.5 Y112.166
G0 X106.5 Y111.035
G0 X107.32 Y111.035
G1 F150 X111.035 Y107.32 E809.9077
G0 F9000 X111.035 Y106.5
G0 X109.903 Y106.5
G0 X109.903 Y107.32
G1 F150 X107.32 Y109.903 E813.79559
G0 F9000 X106.5 Y109.903
G0 X106.5 Y108.772
G0 X107.32 Y108.772
G1 F150 X108.772 Y107.32 E815.98111
G0 F9000 X108.772 Y106.5
G0 X107.641 Y106.5
G0 X107.641 Y107.32
G1 F150 X107.32 Y107.641 E816.46427
;MESH:NONMESH
G0 F300 X107.32 Y107.641 Z2.24
G0 F9000 X106.5 Y107.641
G0 X106.572 Y113.428
G0 X110 Y113.8
;TIME_ELAPSED:327.664955
;LAYER:6
;TYPE:WALL-INNER
;MESH:20mm_cube.stl
G1 F150 X113.8 Y113.8 E820.50871
G1 X113.8 Y106.2 E828.59757
G1 X106.2 Y106.2 E836.68644
G1 X106.2 Y113.8 E844.7753
G1 X110 Y113.8 E848.81973
G0 F9000 X110 Y114.6
;TYPE:WALL-OUTER
G1 F150 X114.6 Y114.6 E853.71563
G1 X114.6 Y105.4 E863.50741
G1 X105.4 Y105.4 E873.29919
G1 X105.4 Y114.6 E883.09098
G1 X110 Y114.6 E887.98687
G0 F9000 X110 Y114.09
G0 X110 Y113.5
G0 X110 Y113.08
;TYPE:SKIN
G1 F150 X106.92 Y113.08 E891.26499
G1 X106.92 Y106.92 E897.82123
G1 X113.08 Y106.92 E904.37746
G1 X113.08 Y113.08 E910.9337
G1 X110 Y113.08 E914.21182
G0 F9000 X110 Y113.5
G0 X108.154 Y113.5
G0 X108.154 Y112.68
G1 F150 X107.32 Y111.845 E915.4679
G0 F9000 X106.5 Y111.845
G0 X106.5 Y110.714
G0 X107.32 Y110.714
G1 F150 X109.285 Y112.68 E918.42633
G0 F9000 X109.285 Y113.5
G0 X110.417 Y113.5
G0 X110.417 Y112.68
G1 F150 X107.32 Y109.582 E923.08863
G0 F9000 X106.5 Y109.582
G0 X106.5 Y108.451
G0 X107.32 Y108.451
G1 F150 X111.548 Y112.68 E929.45329
G0 F9000 X111.548 Y113.5
G0 X113.428 Y113.428
G0 X113.5 Y112.68
G0 X112.68 Y112.68
G1 F150 X107.32 Y107.32 E937.52107
G0 F9000 X106.5 Y107.32
G0 X106.572 Y106.572
G0 X108.451 Y106.5
G0 X108.451 Y107.32
G1 F150 X112.68 Y111.549 E943.88648
G0 F9000 X113.5 Y111.549
G0 X113.5 Y110.418
G0 X112.68 Y110.418
G1 F150 X109.582 Y107.32 E948.54954
G0 F9000 X109.582 Y106.5
G0 X110.714 Y106.5
G0 X110.714 Y107.32
G1 F150 X112.68 Y109.286 E951.50872
G0 F9000 X113.5 Y109.286
G0 X113.5 Y108.155
G0 X112.68 Y108.155
G1 F150 X111.845 Y107.32 E952.76555
;MESH:NONMESH
G0 F300 X111.845 Y107.32 Z2.56
G0 F9000 X111.845 Y106.5
G0 X113.428 Y106.572
G0 X113.428 Y113.428
G0 X110 Y113.8
;TIME_ELAPSED:381.694085
;LAYER:7
;TYPE:WALL-INNER
;MESH:20mm_cube.stl
G1 F150 X113.8 Y113.8 E956.80998
G1 X113.8 Y106.2 E964.89885
G1 X106.2 Y106.2 E972.98771
G1 X106.2 Y113.8 E981.07658
G1 X110 Y113.8 E985.12101
G0 F9000 X110 Y114.6
;TYPE:WALL-OUTER
G1 F150 X114.6 Y114.6 E990.0169
G1 X114.6 Y105.4 E999.80868
G1 X105.4 Y105.4 E1009.60047
G1 X105.4 Y114.6 E1019.39225
G1 X110 Y114.6 E1024.28814
G0 F9000 X110 Y114.09
G0 X110 Y113.5
G0 X110 Y113.08
;TYPE:SKIN
G1 F150 X106.92 Y113.08 E1027.56626
G1 X106.92 Y106.92 E1034.1225
G1 X113.08 Y106.92 E1040.67874
G1 X113.08 Y113.08 E1047.23498
G1 X110 Y113.08 E1050.5131
G0 F9000 X110 Y113.5
G0 X112.463 Y113.5
G0 X112.463 Y112.68
G1 F150 X112.68 Y112.463 E1050.83972
G0 F9000 X113.5 Y112.463
G0 X113.5 Y111.332
G0 X112.68 Y111.332
G1 F150 X111.331 Y112.68 E1052.86946
G0 F9000 X111.331 Y113.5
G0 X110.2 Y113.5
G0 X110.2 Y112.68
G1 F150 X112.68 Y110.2 E1056.60231
G0 F9000 X113.5 Y110.2
G0 X113.5 Y109.069
G0 X112.68 Y109.069
G1 F150 X109.068 Y112.68 E1062.03827
G0 F9000 X109.068 Y113.5
G0 X107.937 Y113.5
G0 X107.937 Y112.68
G1 F150 X112.68 Y107.938 E1069.1766
G0 F9000 X112.166 Y107.32
G1 F150 X107.32 Y112.166 E1076.47071
G0 F9000 X106.5 Y112.166
G0 X106.5 Y111.035
G0 X107.32 Y111.035
G1 F150 X111.035 Y107.32 E1082.06246
G0 F9000 X111.035 Y106.5
G0 X109.903 Y106.5
G0 X109.903 Y107.32
G1 F150 X107.32 Y109.903 E1085.95035
G0 F9000 X106.5 Y109.903
G0 X106.5 Y108.772
G0 X107.32 Y108.772
G1 F150 X108.772 Y107.32 E1088.13587
G0 F9000 X108.772 Y106.5
G0 X107.641 Y106.5
G0 X107.641 Y107.32
G1 F150 X107.32 Y107.641 E1088.61903
;MESH:NONMESH
G0 F300 X107.32 Y107.641 Z2.88
G0 F9000 X106.5 Y107.641
G0 X106.572 Y113.428
G0 X110 Y113.8
;TIME_ELAPSED:435.382772
;LAYER:8
;TYPE:WALL-INNER
;MESH:20mm_cube.stl
G1 F150 X113.8 Y113.8 E1092.66347
G1 X113.8 Y106.2 E1100.75233
G1 X106.2 Y106.2 E1108.8412
G1 X106.2 Y113.8 E1116.93006
G1 X110 Y113.8 E1120.97449
G0 F9000 X110 Y114.6
;TYPE:WALL-OUTER
G1 F150 X114.6 Y114.6 E1125.87038
G1 X114.6 Y105.4 E1135.66217
G1 X105.4 Y105.4 E1145.45395
G1 X105.4 Y114.6 E1155.24574
G1 X110 Y114.6 E1160.14163
G0 F9000 X110 Y114.09
G0 X110 Y113.5
G0 X110 Y113.08
;TYPE:SKIN
G1 F150 X106.92 Y113.08 E1163.41975
G1 X106.92 Y106.92 E1169.97598
G1 X113.08 Y106.92 E1176.53222
G1 X113.08 Y113.08 E1183.08846
G1 X110 Y113.08 E1186.36658
G0 F9000 X110 Y113.5
G0 X108.154 Y113.5
G0 X108.154 Y112.68
G1 F150 X107.32 Y111.845 E1187.62265
G0 F9000 X106.5 Y111.845
G0 X106.5 Y110.714
G0 X107.32 Y110.714
G1 F150 X109.285 Y112.68 E1190.58109
G0 F9000 X109.285 Y113.5
G0 X110.417 Y113.5
G0 X110.417 Y112.68
G1 F150 X107.32 Y109.582 E1195.24339
G0 F9000 X106.5 Y109.582
G0 X106.5 Y108.451
G0 X107.32 Y108.451
G1 F150 X111.548 Y112.68 E1201.60805
G0 F9000 X111.548 Y113.5
G0 X113.428 Y113.428
G0 X113.5 Y112.68
G0 X112.68 Y112.68
G1 F150 X107.32 Y107.32 E1209.67583
G0 F9000 X106.5 Y107.32
G0 X106.572 Y106.572
G0 X108.451 Y106.5
G0 X108.451 Y107.32
G1 F150 X112.68 Y111.549 E1216.04124
G0 F9000 X113.5 Y111.549
G0 X113.5 Y110.418
G0 X112.68 Y110.418
G1 F150 X109.582 Y107.32 E1220.70429
G0 F9000 X109.582 Y106.5
G0 X110.714 Y106.5
G0 X110.714 Y107.32
G1 F150 X112.68 Y109.286 E1223.66348
G0 F9000 X113.5 Y109.286
G0 X113.5 Y108.155
