;FLAVOR:Marlin
;TIME:433
;Filament used: 0.102576m
;Layer height: 0.32
;MINX:95.944
;MINY:99.899
;MINZ:0.32
;MAXX:126.202
;MAXY:121.036
;MAXZ:0.64
;TARGET_MACHINE.NAME:Creality Ender-3 Pro
;Generated with Cura_SteamEngine 5.10.0
; Ender 3 Custom Start G-code
G92 E0 ; Reset Extruder
G28 ; Home all axes
G1 Z5.0 F3000 ; Move Z Axis up a bit during heating to not damage bed
M104 S175 ; Start heating up the nozzle most of the way
M190 S0 ; Start heating the bed, wait until target temperature reached
M109 S0.0 ; Finish heating the nozzle
G1 Z2.0 F3000 ; Move Z Axis up little to prevent scratching of Heat Bed
G1 X0.1 Y20 Z0.3 F5000.0 ; Move to start position
G1 X0.1 Y200.0 Z0.3 F1500.0 E15 ; Draw the first line
G1 X0.4 Y200.0 Z0.3 F5000.0 ; Move to side a little
G1 X0.4 Y20 Z0.3 F1500.0 E30 ; Draw the second line
G92 E0 ; Reset Extruder
G1 Z2.0 F3000 ; Move Z Axis up little to prevent scratching of Heat Bed
G1 X5 Y20 Z0.3 F5000.0 ; Move over to prevent blob squish
M92 E20000     ; set extruder steps/mm
M500           ; save to EEPROM
M82 ;absolute extrusion mode
G92 E0
G92 E0
G1 F1500 E-6.5
;LAYER_COUNT:2
;LAYER:0
M107
;MESH:intestinal_wall_tissue2.stl
G0 F6000 X110.5 Y119.176 Z0.32
;TYPE:WALL-INNER
G1 F1500 E0
G1 F150 X124.344 Y119.176 E1.47345
G1 X124.344 Y117.755 E1.62469
G1 X124.279 Y117.654 E1.63747
G1 X124.212 Y117.256 E1.68043
G1 X124.25 Y116.956 E1.71262
G1 X124.344 Y116.708 E1.74084
G1 X124.344 Y100.82 E3.43184
G1 X96.744 Y100.82 E6.36938
G1 X96.744 Y119.176 E8.32305
G1 X110.5 Y119.176 E9.78714
G0 F6000 X110.496 Y119.976
;TYPE:WALL-OUTER
G1 F150 X125.144 Y119.976 E11.34616
G1 X125.144 Y117.554 E11.60394
G1 X125.034 Y117.389 E11.62504
G1 X125.024 Y117.156 E11.64986
G1 X125.144 Y116.894 E11.68054
G1 X125.144 Y100.02 E13.47648
G1 X95.944 Y100.02 E16.5843
G1 X95.944 Y119.976 E18.70827
G1 X110.496 Y119.976 E20.25707
G0 F6000 X110.496 Y119.469
G0 X110.503 Y118.876
G0 X110.503 Y118.456
;TYPE:SKIN
G1 F150 X97.464 Y118.456 E21.64485
G1 X97.464 Y101.54 E23.44526
G1 X123.624 Y101.54 E26.22953
G1 X123.624 Y116.573 E27.82953
G1 X123.538 Y116.829 E27.85827
G1 X123.487 Y117.263 E27.90478
G1 X123.599 Y117.891 E27.97268
G1 X123.624 Y117.941 E27.97862
G1 X123.624 Y118.456 E28.03344
G1 X110.503 Y118.456 E29.42994
G0 F6000 X110.503 Y118.876
G0 X98.822 Y118.876
G0 X98.822 Y118.056
G1 F150 X97.864 Y117.097 E29.57421
G0 F6000 X97.044 Y117.097
G0 X97.044 Y115.966
G0 X97.864 Y115.966
G1 F150 X99.954 Y118.056 E29.88879
G0 F6000 X99.954 Y118.876
G0 X101.085 Y118.876
G0 X101.085 Y118.056
G1 F150 X97.864 Y114.834 E30.37369
G0 F6000 X97.044 Y114.834
G0 X97.044 Y113.703
G0 X97.864 Y113.703
G1 F150 X102.217 Y118.056 E31.02889
G0 F6000 X102.217 Y118.876
G0 X103.348 Y118.876
G0 X103.348 Y118.056
G1 F150 X97.864 Y112.571 E31.85441
G0 F6000 X97.044 Y112.571
G0 X97.044 Y111.44
G0 X97.864 Y111.44
G1 F150 X104.479 Y118.056 E32.85016
G0 F6000 X104.479 Y118.876
G0 X105.611 Y118.876
G0 X105.611 Y118.056
G1 F150 X97.864 Y110.309 E34.01623
G0 F6000 X97.044 Y110.309
G0 X97.044 Y109.177
G0 X97.864 Y109.177
G1 F150 X106.742 Y118.056 E35.3526
G0 F6000 X106.742 Y118.876
G0 X107.873 Y118.876
G0 X107.873 Y118.056
G1 F150 X97.864 Y108.046 E36.85921
G0 F6000 X97.044 Y108.046
G0 X97.044 Y106.915
G0 X97.864 Y106.915
G1 F150 X109.005 Y118.056 E38.53614
G0 F6000 X109.005 Y118.876
G0 X110.136 Y118.876
G0 X110.136 Y118.056
G1 F150 X97.864 Y105.783 E40.38337
G0 F6000 X97.099 Y106.152
G0 X97.116 Y118.804
G0 X123.972 Y118.804
G0 X123.972 Y101.192
G0 X114.86 Y100.771
G0 X97.116 Y101.192
G0 X97.088 Y104.447
G0 X97.864 Y104.652
G1 F150 X111.267 Y118.056 E42.40084
G0 F6000 X111.267 Y118.876
G0 X112.399 Y118.876
G0 X112.399 Y118.056
G1 F150 X97.864 Y103.52 E44.5887
G0 F6000 X97.044 Y103.52
G0 X97.044 Y102.389
G0 X97.864 Y102.389
G1 F150 X113.53 Y118.056 E46.94679
G0 F6000 X113.53 Y118.876
G0 X114.662 Y118.876
G0 X114.662 Y118.056
G1 F150 X98.546 Y101.94 E49.37254
G0 F6000 X98.546 Y101.12
G0 X99.677 Y101.12
G0 X99.677 Y101.94
G1 F150 X115.793 Y118.056 E51.7983
G0 F6000 X115.793 Y118.876
G0 X116.924 Y118.876
G0 X116.924 Y118.056
G1 F150 X100.809 Y101.94 E54.22397
G0 F6000 X100.809 Y101.12
G0 X101.94 Y101.12
G0 X101.94 Y101.94
G1 F150 X118.056 Y118.056 E56.64972
G0 F6000 X118.056 Y118.876
G0 X119.187 Y118.876
G0 X119.187 Y118.056
G1 F150 X103.071 Y101.94 E59.07547
G0 F6000 X103.071 Y101.12
G0 X104.203 Y101.12
G0 X104.203 Y101.94
G1 F150 X120.318 Y118.056 E61.50115
G0 F6000 X120.318 Y118.876
G0 X121.45 Y118.876
G0 X121.45 Y118.056
G1 F150 X105.334 Y101.94 E63.9269
G0 F6000 X105.334 Y101.12
G0 X106.466 Y101.12
G0 X106.466 Y101.94
G1 F150 X122.581 Y118.056 E66.35258
G0 F6000 X123.116 Y117.459
G1 F150 X107.597 Y101.94 E68.68847
G0 F6000 X107.597 Y101.12
G0 X108.728 Y101.12
G0 X108.728 Y101.94
G1 F150 X123.224 Y116.436 E70.87038
G0 F6000 X124.044 Y116.436
G0 X124.044 Y115.304
G0 X123.224 Y115.304
G1 F150 X109.86 Y101.94 E72.8819
G0 F6000 X109.86 Y101.12
G0 X110.991 Y101.12
G0 X110.991 Y101.94
G1 F150 X123.224 Y114.173 E74.72319
G0 F6000 X124.044 Y114.173
G0 X124.044 Y113.042
G0 X123.224 Y113.042
G1 F150 X112.122 Y101.94 E76.39425
G0 F6000 X112.122 Y101.12
G0 X113.254 Y101.12
G0 X113.254 Y101.94
G1 F150 X123.224 Y111.91 E77.89491
G0 F6000 X124.044 Y111.91
G0 X124.044 Y110.779
G0 X123.224 Y110.779
G1 F150 X114.385 Y101.94 E79.22534
G0 F6000 X114.282 Y101.126
G0 X114.86 Y100.771
G0 X115.516 Y101.12
G0 X115.516 Y101.94
G1 F150 X123.224 Y109.648 E80.38554
G0 F6000 X124.044 Y109.648
G0 X124.044 Y108.516
G0 X123.224 Y108.516
G1 F150 X116.648 Y101.94 E81.37535
G0 F6000 X116.648 Y101.12
G0 X117.779 Y101.12
G0 X117.779 Y101.94
G1 F150 X123.224 Y107.385 E82.19492
G0 F6000 X124.044 Y107.385
G0 X124.044 Y106.253
G0 X123.224 Y106.253
G1 F150 X118.911 Y101.94 E82.8441
G0 F6000 X118.911 Y101.12
G0 X120.042 Y101.12
G0 X120.042 Y101.94
G1 F150 X123.224 Y105.122 E83.32305
G0 F6000 X124.044 Y105.122
G0 X124.044 Y103.991
G0 X123.224 Y103.991
G1 F150 X121.173 Y101.94 E83.63176
G0 F6000 X121.173 Y101.12
G0 X122.305 Y101.12
G0 X122.305 Y101.94
G1 F150 X123.224 Y102.859 E83.77009
;MESH:NONMESH
G0 F300 X123.224 Y102.859 Z0.64
G0 F6000 X124.044 Y102.859
G0 X123.972 Y101.192
G0 X115.771 Y100.813
G0 X102.341 Y100.531
G0 X102.341 Y99.994
;TIME_ELAPSED:329.289904
;LAYER:1
;TYPE:WALL-OUTER
;MESH:intestinal_wall_tissue2.stl
G1 F179.9 X102.115 Y100.275 E83.80209
G1 F177.3 X102.007 Y100.57 E83.83038
G1 F154.8 X101.931 Y100.683 E83.84442
G1 F1500 E77.34442
G0 F7500 X100.385 Y100.644
G1 F1500 E83.84442
G1 F92.1 X100.006 Y100.739 E83.91216
G1 F91.7 X99.761 Y100.9 E83.96317
G1 F93.4 X99.622 Y101.026 E83.99525
G1 F1500 E77.49525
G0 F7500 X98.754 Y101.936
G0 X97.774 Y102.744
G1 F1500 E83.99525
G1 F111.9 X97.731 Y102.703 E84.00372
G1 X97.864 Y102.419 E84.04845
G1 X97.86 Y102.115 E84.09181
G1 X97.801 Y101.99 E84.11152
G1 X97.79 Y101.794 E84.13952
G1 X97.61 Y101.385 E84.20325
G1 X97.714 Y101.303 E84.22214
G1 X97.992 Y101.398 E84.26403
G1 X98.311 Y101.327 E84.31064
G1 F109.4 X98.697 Y101.019 E84.38271
G1 F103.9 X99.361 Y101.101 E84.48552
G1 F100 X99.601 Y101.032 E84.52539
G1 F101.5 X99.467 Y101.512 E84.60376
G1 F104.3 X99.399 Y101.526 E84.61439
G1 F108.7 X99.236 Y101.749 E84.65496
G1 F113.5 X99.159 Y102.007 E84.69282
G1 F112.8 X98.992 Y102.132 E84.72235
G1 F111.9 X98.874 Y102.334 E84.75571
G1 X98.462 Y102.35 E84.81452
G1 X97.934 Y102.577 E84.89648
G1 X97.774 Y102.744 E84.92947
G1 F1500 E78.42947
G0 F7500 X98.325 Y102.073
G0 X96.313 Y103.979
G1 F1500 E84.92947
G1 F97.6 X96.237 Y104.112 E84.95454
G1 X96.084 Y104.112 E84.97957
G1 X96.007 Y103.979 E85.00472
G1 X96.083 Y103.846 E85.02979
G1 X96.236 Y103.846 E85.05483
G1 X96.313 Y103.979 E85.07997
G1 F1500 E78.57997
G0 F7500 X102.804 Y104.147
G1 F1500 E85.07997
G1 F179.6 X102.763 Y104.219 E85.08734
G1 X102.68 Y104.219 E85.09471
G1 X102.638 Y104.147 E85.10212
G1 X102.679 Y104.075 E85.10948
G1 X102.762 Y104.075 E85.11686
G1 X102.804 Y104.147 E85.12427
G1 F1500 E78.62427
G0 F7500 X109.611 Y104.725
G1 F1500 E85.12427
G1 F169.5 X109.567 Y104.801 E85.13254
G1 X109.479 Y104.801 E85.14083
G1 X109.435 Y104.725 E85.1491
G1 X109.479 Y104.649 E85.15737
G1 X109.567 Y104.649 E85.16566
G1 X109.611 Y104.725 E85.17393
G1 F1500 E78.67393
G0 F7500 X107.274 Y103.934
G1 F1500 E85.17393
G1 F139.5 X107.244 Y104.097 E85.1929
G1 F151.5 X107.436 Y104.326 E85.22438
G1 F152.7 X107.759 Y104.577 E85.26716
G1 F127.9 X108.082 Y104.828 E85.31821
G1 F109.7 X108.389 Y104.985 E85.36839
G1 F105.6 X108.376 Y105.076 E85.38229
G1 F137.6 X108.16 Y105.237 E85.41354
G1 F228.1 X107.916 Y105.386 E85.43355
G1 F242.4 X107.518 Y105.727 E85.46806
G1 F173.7 X107.347 Y105.948 E85.49375
G1 F147.6 X107.231 Y105.993 E85.50721
G1 F149.1 X107.126 Y106.131 E85.52578
G0 F7500 X105.998 Y105.972
G1 F170.5 X106.14 Y106.178 E85.54921
G1 F1500 E79.04921
G0 F7500 X105.829 Y108.296
G1 F1500 E85.54921
G1 F124 X105.273 Y107.903 E85.6369
G1 X105.091 Y107.857 E85.66107
G1 X105.177 Y107.723 E85.68158
G1 X105.204 Y107.423 E85.72037
G1 X105.388 Y107.306 E85.74845
G1 F123.1 X105.626 Y106.988 E85.79997
G1 F124.2 X105.99 Y106.806 E85.85228
G1 F125.8 X106.223 Y106.632 E85.88918
G1 F125.1 X106.282 Y106.514 E85.90602
G1 X106.272 Y106.378 E85.92342
G1 X106.391 Y106.442 E85.94065
G1 X106.57 Y106.424 E85.96361
G1 F133 X106.934 Y106.279 E86.01063
G1 F147.4 X107.126 Y106.131 E86.03688
G1 X107.034 Y106.356 E86.0632
G1 F133 X107.062 Y106.613 E86.09423
G1 F125.1 X107.418 Y107.023 E86.1635
G1 X107.391 Y107.194 E86.18559
G1 X107.258 Y107.169 E86.20286
G1 F123.3 X106.968 Y107.241 E86.24154
G1 F119.9 X106.421 Y107.629 E86.33085
G1 F118.2 X106.35 Y107.761 E86.35109
G1 F121 X106.105 Y107.955 E86.39233
G1 F124 X105.979 Y108.193 E86.42701
G1 X105.829 Y108.296 E86.45045
G1 F1500 E79.95045
G0 F7500 X105.621 Y109.961
G1 F1500 E86.45045
G1 F120.5 X105.565 Y109.951 E86.45798
G1 F128.9 X105.307 Y109.942 E86.48996
G1 F124.6 X105.017 Y109.972 E86.52731
G1 F119.9 X104.721 Y110.206 E86.57756
G1 F123.1 X104.568 Y110.287 E86.60002
G1 F143.9 X104.297 Y110.647 E86.65001
G1 F149.6 X104.077 Y110.998 E86.69421
G1 F121.2 X104.06 Y111.146 E86.71384
G1 F104.3 X104.105 Y111.508 E86.76965
G1 F94.8 X103.68 Y111.914 E86.86864
G1 F93.4 X103.636 Y111.983 E86.88263
G1 F1500 E80.38263
G0 F7500 X102.767 Y112.958
G0 X102.029 Y112.762
G0 X101.043 Y111.938
G0 X100.325 Y111.765
G0 X99.892 Y111.805
G0 X99.276 Y111.954
G0 X99.07 Y112.13
G0 X98.229 Y112.806
G1 F1500 E86.88263
G1 F173.4 X98.186 Y112.88 E86.89051
G1 X98.1 Y112.88 E86.89843
G1 X98.057 Y112.806 E86.90631
G1 X98.1 Y112.732 E86.91419
G1 X98.186 Y112.732 E86.92211
G1 X98.229 Y112.806 E86.92999
G1 F1500 E80.42999
G0 F7500 X97.17 Y110.548
G1 F1500 E86.92999
G1 F125 X97.25 Y110.189 E86.97696
G1 F124.5 X97.357 Y109.912 E87.01504
G1 F111.7 X97.474 Y109.721 E87.04705
G1 F117.4 X97.971 Y109.3 E87.13561
G1 F124.6 X98.191 Y109.041 E87.17915
G1 F112.4 X98.307 Y108.925 E87.20246
G1 F1500 E80.70246
G0 F7500 X100.392 Y110.4
G1 F1500 E87.20246
G1 F169.7 X100.657 Y110.142 E87.23725
G1 F146.3 X100.811 Y109.759 E87.28228
G1 F118.9 X100.947 Y109.648 E87.30584
G1 F113 X101.144 Y109.182 E87.37733
G1 F108 X101.521 Y108.883 E87.44845
G1 F100.7 X101.571 Y108.803 E87.46341
G1 F101.4 X101.884 Y108.448 E87.5379
G1 F111.7 X102.165 Y108.272 E87.58527
G1 F120.6 X102.429 Y108.035 E87.63224
G1 F121.5 X102.595 Y107.783 E87.6719
G1 F117.8 X102.806 Y107.557 E87.71382
G1 F1500 E81.21382
G0 F7500 X103.059 Y105.593
G1 F1500 E87.71382
G1 F150.8 X103.01 Y105.679 E87.7243
G1 X102.911 Y105.679 E87.73478
G1 X102.861 Y105.593 E87.74532
G1 X102.91 Y105.507 E87.7558
G1 X103.009 Y105.507 E87.76629
G1 X103.059 Y105.593 E87.77682
G0 F7500 X104.071 Y105.838
G1 F166 X104.463 Y105.594 E87.82123
G1 F159.4 X104.576 Y105.466 E87.83834
G1 F151.7 X104.658 Y105.285 E87.85925
G0 F7500 X104.131 Y104.469
G1 F178.6 X104.089 Y104.542 E87.86678
G1 X104.005 Y104.542 E87.87429
G1 X103.963 Y104.469 E87.88182
G1 X104.005 Y104.396 E87.88935
G1 X104.089 Y104.396 E87.89686
G1 X104.131 Y104.469 E87.90439
G1 F1500 E81.40439
G0 F7500 X104.605 Y103.59
G0 X104.64 Y102.926
G0 X105.236 Y102.072
G0 X106.501 Y101.1
G0 X106.27 Y100.09
G1 F1500 E87.90439
G1 F174.4 X106.227 Y100.164 E87.91222
G1 X106.141 Y100.164 E87.92009
G1 X106.098 Y100.09 E87.92793
G1 X106.141 Y100.016 E87.93576
G1 X106.227 Y100.016 E87.94363
G1 X106.27 Y100.09 E87.95147
G1 F1500 E81.45147
G0 F7500 X108.789 Y99.976
G1 F1500 E87.95147
G1 F168.1 X108.745 Y100.053 E87.95989
G1 X108.656 Y100.053 E87.96834
G1 X108.611 Y99.976 E87.97682
G1 X108.655 Y99.899 E87.98524
G1 X108.744 Y99.899 E87.9937
G1 X108.789 Y99.976 E88.00217
G1 F1500 E81.50217
G0 F7500 X109.595 Y103.479
G1 F1500 E88.00217
G1 F150 X109.545 Y103.566 E88.01285
G1 X109.445 Y103.566 E88.02349
G1 X109.395 Y103.479 E88.03417
G1 X109.445 Y103.392 E88.04485
G1 X109.545 Y103.392 E88.05549
G1 X109.595 Y103.479 E88.06617
G1 F1500 E81.56617
G0 F7500 X113.531 Y104.826
G1 F1500 E88.06617
G1 F164.8 X113.486 Y104.905 E88.07498
G1 X113.395 Y104.905 E88.08379
G1 X113.349 Y104.826 E88.09265
G1 X113.394 Y104.747 E88.10145
G1 X113.485 Y104.747 E88.11027
G1 X113.531 Y104.826 E88.11912
G1 F1500 E81.61912
G0 F7500 X113.504 Y103.586
G0 X112.649 Y101.286
G0 X111.795 Y100.179
G1 F1500 E88.11912
G1 F125.8 X111.735 Y100.076 E88.13425
G1 X111.616 Y100.076 E88.14935
G1 X111.557 Y100.179 E88.16442
G1 X111.617 Y100.282 E88.17955
G1 X111.736 Y100.282 E88.19465
G1 X111.795 Y100.179 E88.20972
G1 F119.3 X111.384 Y100.472 E88.27727
G1 F113.3 X111.422 Y100.463 E88.28277
G1 F1500 E81.78277
G0 F7500 X110.333 Y101.755
G1 F1500 E88.28277
G1 F132.5 X110.319 Y101.843 E88.29351
G1 F1500 E81.79351
G0 F7500 X115.84 Y105.633
G0 X113.93 Y109.132
;TYPE:WALL-INNER
G1 F1500 E88.29351
G1 F110.8 X113.811 Y109.401 E88.3359
G1 F109.6 X113.692 Y109.704 E88.38332
G0 F7500 X113.93 Y109.132
G1 F119.4 X114.274 Y108.802 E88.44705
G1 F136.7 X114.773 Y108.427 E88.51997
G1 F146.3 X114.82 Y108.43 E88.52511
G1 F151.1 X115.047 Y108.189 E88.56008
G1 F150.8 X115.349 Y107.826 E88.61008
G1 X115.55 Y107.635 E88.63945
G1 X115.797 Y107.356 E88.67891
G1 X115.964 Y107.23 E88.70106
G1 F150.6 X115.98 Y107.083 E88.71674
G1 F160.4 X116.191 Y106.673 E88.76263
G1 F171.9 X116.231 Y106.345 E88.79331
G1 X116.27 Y106.172 E88.80978
G1 X116.243 Y105.89 E88.83609
G1 X116.258 Y105.748 E88.84935
G1 X116.006 Y105.885 E88.87598
G1 X115.662 Y106.183 E88.91825
G1 X115.613 Y106.282 E88.92851
G1 F166.2 X115.375 Y106.67 E88.97223
G1 F155.4 X114.529 Y107.564 E89.09864
G1 F151.1 X114.329 Y107.799 E89.13124
G1 F153.8 X114.014 Y108.031 E89.17184
G1 F143.4 X113.997 Y108.662 E89.24213
G1 F119.4 X113.93 Y109.132 E89.30561
G0 F7500 X113.694 Y109.111
G0 X112.405 Y111.083
G1 F130.6 X112.277 Y111.192 E89.32616
G1 F135.7 X111.961 Y111.678 E89.39434
G1 F1500 E82.89434
G0 F7500 X111.272 Y113.493
G0 X109.355 Y115.655
G0 X107.817 Y117.334
G1 F1500 E89.39434
G1 F102.7 X107.582 Y117.671 E89.45818
G0 F7500 X107.817 Y117.334
G1 F116.1 X108.095 Y117.179 E89.50197
G1 F138.7 X108.432 Y117.103 E89.54172
G1 F151.9 X109.002 Y116.87 E89.60644
G1 F156.7 X108.993 Y116.53 E89.6411
G1 X109.065 Y116.243 E89.67126
G1 F154.6 X109.196 Y115.981 E89.7015
G1 F149.3 X109.343 Y115.742 E89.73151
G1 F140.8 X109.439 Y115.347 E89.77759
G1 X109.16 Y115.595 E89.8199
G1 F151.1 X108.803 Y115.807 E89.86376
G1 F156.7 X108.385 Y116.249 E89.92576
G1 X108.284 Y116.416 E89.94565
G1 F140.5 X107.945 Y116.904 E90.01316
G1 F114.7 X107.817 Y117.334 E90.07559
G0 F7500 X107.378 Y117.952
G0 X106.989 Y119.209
G1 F163.3 X107.703 Y118.401 E90.18103
G1 F166.7 X107.709 Y118.093 E90.21054
G1 F145.5 X107.626 Y117.901 E90.2335
G1 F112.8 X107.582 Y117.671 E90.26664
G1 X107.359 Y117.744 E90.29986
G1 F145.5 X107.151 Y117.763 E90.32278
G1 F170.2 X107.038 Y117.83 E90.3351
G1 F166.7 X106.976 Y118.15 E90.36633
G1 F163.3 X106.71 Y118.759 E90.43131
G1 X106.433 Y119.079 E90.4727
G1 X106.365 Y119.208 E90.48696
G1 X106.989 Y119.209 E90.54797
G1 F1500 E84.04797
G0 F7500 X107.295 Y118.14
G0 X108.94 Y115.281
G0 X111.123 Y112.993
G0 X119.449 Y102.483
G1 F1500 E90.54797
G1 F121.5 X119.772 Y102.185 E90.60574
G1 X119.983 Y101.941 E90.64814
G1 X120.358 Y101.674 E90.70865
G1 X120.4 Y101.594 E90.72053
G1 X120.632 Y101.302 E90.76955
G1 X121.007 Y100.957 E90.83653
