;FLAVOR:Marlin
;TIME:1146
;Filament used: 0.710291m
;Layer height: 0.32
;MINX:94.341
;MINY:98.956
;MINZ:0.32
;MAXX:125.665
;MAXY:121.044
;MAXZ:1.28
;TARGET_MACHINE.NAME:Creality Ender-3 Pro
;Generated with Cura_SteamEngine 5.10.0
; Ender 3 Custom Start G-code
G92 E0 ; Reset Extruder
G28 ; Home all axes
G1 Z5.0 F3000 ; Move Z Axis up a bit during heating to not damage bed
M104 S175 ; Start heating up the nozzle most of the way
M190 S0 ; Start heating the bed, wait until target temperature reached
M109 S0.0 ; Finish heating the nozzle
G1 Z2.0 F3000 ; Move Z Axis up little to prevent scratching of Heat Bed
G1 X0.1 Y20 Z0.3 F5000.0 ; Move to start position
G1 X0.1 Y200.0 Z0.3 F1500.0 E15 ; Draw the first line
G1 X0.4 Y200.0 Z0.3 F5000.0 ; Move to side a little
G1 X0.4 Y20 Z0.3 F1500.0 E30 ; Draw the second line
G92 E0 ; Reset Extruder
G1 Z2.0 F3000 ; Move Z Axis up little to prevent scratching of Heat Bed
G1 X5 Y20 Z0.3 F5000.0 ; Move over to prevent blob squish
M92 E20000     ; set extruder steps/mm
M500           ; save to EEPROM
M82 ;absolute extrusion mode
G92 E0
G92 E0
G1 F1500 E-6.5
;LAYER_COUNT:4
;LAYER:0
M107
;MESH:intestinal_wall_tissue.stl
G0 F6000 X110 Y119.176 Z0.32
;TYPE:WALL-INNER
G1 F1500 E0
G1 F150 X123.8 Y119.176 E3.67192
G1 X123.8 Y100.82 E8.5561
G1 X96.2 Y100.82 E15.89994
G1 X96.2 Y119.176 E20.78413
G1 X110 Y119.176 E24.45604
G0 F6000 X110 Y119.976
;TYPE:WALL-OUTER
G1 F150 X124.6 Y119.976 E28.34083
G1 X124.6 Y100.02 E33.65074
G1 X95.4 Y100.02 E41.42031
G1 X95.4 Y119.976 E46.73022
G1 X110 Y119.976 E50.61501
G0 F6000 X110 Y119.469
G0 X110 Y118.876
G0 X110 Y118.456
;TYPE:SKIN
G1 F150 X96.92 Y118.456 E54.09535
G1 X96.92 Y101.54 E58.59638
G1 X123.08 Y101.54 E65.55706
G1 X123.08 Y118.456 E70.05808
G1 X110 Y118.456 E73.53842
G0 F6000 X110 Y118.876
G0 X97.691 Y118.876
G0 X97.691 Y118.056
G1 F150 X97.32 Y117.684 E73.67822
G0 F6000 X96.5 Y117.684
G0 X96.5 Y116.553
G0 X97.32 Y116.553
G1 F150 X98.822 Y118.056 E74.2436
G0 F6000 X98.822 Y118.876
G0 X99.954 Y118.876
G0 X99.954 Y118.056
G1 F150 X97.32 Y115.422 E75.23476
G0 F6000 X96.5 Y115.422
G0 X96.5 Y114.29
G0 X97.32 Y114.29
G1 F150 X101.085 Y118.056 E76.65171
G0 F6000 X101.085 Y118.876
G0 X102.217 Y118.876
G0 X102.217 Y118.056
G1 F150 X97.32 Y113.159 E78.49442
G0 F6000 X96.5 Y113.159
G0 X96.5 Y112.028
G0 X97.32 Y112.028
G1 F150 X103.348 Y118.056 E80.76273
G0 F6000 X103.348 Y118.876
G0 X104.479 Y118.876
G0 X104.479 Y118.056
G1 F150 X97.32 Y110.896 E83.45682
G0 F6000 X96.5 Y110.896
G0 X96.5 Y109.765
G0 X97.32 Y109.765
G1 F150 X105.611 Y118.056 E86.57669
G0 F6000 X105.611 Y118.876
G0 X106.742 Y118.876
G0 X106.742 Y118.056
G1 F150 X97.32 Y108.634 E90.12214
G0 F6000 X96.5 Y108.634
G0 X96.5 Y107.502
G0 X97.32 Y107.502
G1 F150 X107.873 Y118.056 E94.09338
G0 F6000 X107.873 Y118.876
G0 X109.005 Y118.876
G0 X109.005 Y118.056
G1 F150 X97.32 Y106.371 E98.49039
G0 F6000 X96.5 Y106.371
G0 X96.5 Y105.239
G0 X97.32 Y105.239
G1 F150 X110.136 Y118.056 E103.31318
G0 F6000 X110.136 Y118.876
G0 X111.267 Y118.876
G0 X111.267 Y118.056
G1 F150 X97.32 Y104.108 E108.56156
G0 F6000 X96.5 Y104.108
G0 X96.5 Y102.977
G0 X97.32 Y102.977
G1 F150 X112.399 Y118.056 E114.23572
G0 F6000 X112.399 Y118.876
G0 X113.53 Y118.876
G0 X113.53 Y118.056
G1 F150 X97.415 Y101.94 E120.29991
G0 F6000 X97.415 Y101.12
G0 X98.546 Y101.12
G0 X98.546 Y101.94
G1 F150 X114.662 Y118.056 E126.36429
G0 F6000 X114.662 Y118.876
G0 X115.793 Y118.876
G0 X115.793 Y118.056
G1 F150 X99.677 Y101.94 E132.42867
G0 F6000 X99.677 Y101.12
G0 X100.809 Y101.12
G0 X100.809 Y101.94
G1 F150 X116.924 Y118.056 E138.49286
G0 F6000 X116.924 Y118.876
G0 X118.056 Y118.876
G0 X118.056 Y118.056
G1 F150 X101.94 Y101.94 E144.55723
G0 F6000 X101.94 Y101.12
G0 X103.071 Y101.12
G0 X103.071 Y101.94
G1 F150 X119.187 Y118.056 E150.62161
G0 F6000 X119.187 Y118.876
G0 X120.318 Y118.876
G0 X120.318 Y118.056
G1 F150 X104.203 Y101.94 E156.6858
G0 F6000 X104.203 Y101.12
G0 X105.334 Y101.12
G0 X105.334 Y101.94
G1 F150 X121.45 Y118.056 E162.75018
G0 F6000 X121.45 Y118.876
G0 X122.581 Y118.876
G0 X122.581 Y118.056
G1 F150 X106.466 Y101.94 E168.81437
G0 F6000 X106.466 Y101.12
G0 X107.597 Y101.12
G0 X107.597 Y101.94
G1 F150 X122.68 Y117.023 E174.49003
G0 F6000 X123.5 Y117.023
G0 X123.5 Y115.892
G0 X122.68 Y115.892
G1 F150 X108.728 Y101.94 E179.74011
G0 F6000 X108.728 Y101.12
G0 X109.86 Y101.12
G0 X109.86 Y101.94
G1 F150 X122.68 Y114.761 E184.5644
G0 F6000 X123.5 Y114.761
G0 X123.5 Y113.629
G0 X122.68 Y113.629
G1 F150 X110.991 Y101.94 E188.96292
G0 F6000 X110.991 Y101.12
G0 X112.122 Y101.12
G0 X112.122 Y101.94
G1 F150 X122.68 Y112.498 E192.93585
G0 F6000 X123.5 Y112.498
G0 X123.5 Y111.366
G0 X122.68 Y111.366
G1 F150 X113.254 Y101.94 E196.48281
G0 F6000 X113.254 Y101.12
G0 X114.385 Y101.12
G0 X114.385 Y101.94
G1 F150 X122.68 Y110.235 E199.60418
G0 F6000 X123.5 Y110.235
G0 X123.5 Y109.104
G0 X122.68 Y109.104
G1 F150 X115.516 Y101.94 E202.29996
G0 F6000 X115.516 Y101.12
G0 X116.648 Y101.12
G0 X116.648 Y101.94
G1 F150 X122.68 Y107.972 E204.56978
G0 F6000 X123.5 Y107.972
G0 X123.5 Y106.841
G0 X122.68 Y106.841
G1 F150 X117.779 Y101.94 E206.414
G0 F6000 X117.779 Y101.12
G0 X118.911 Y101.12
G0 X118.911 Y101.94
G1 F150 X122.68 Y105.71 E207.83245
G0 F6000 X123.5 Y105.71
G0 X123.5 Y104.578
G0 X122.68 Y104.578
G1 F150 X120.042 Y101.94 E208.82511
G0 F6000 X120.042 Y101.12
G0 X121.173 Y101.12
G0 X121.173 Y101.94
G1 F150 X122.68 Y103.447 E209.39219
G0 F6000 X123.5 Y103.447
G0 X123.5 Y102.316
G0 X122.68 Y102.316
G1 F150 X122.305 Y101.94 E209.53349
G1 F1500 E203.03349
;MESH:NONMESH
G0 F300 X122.305 Y101.94 Z0.64
G0 F6000 X122.305 Y101.12
G0 X123.428 Y101.192
G0 X123.428 Y118.804
G0 X110 Y119.176
;TIME_ELAPSED:328.707441
;LAYER:1
;TYPE:WALL-INNER
;MESH:intestinal_wall_tissue.stl
G1 F1500 E209.53349
G1 F150 X123.8 Y119.176 E213.20541
G1 X123.8 Y100.82 E218.08959
G1 X96.2 Y100.82 E225.43343
G1 X96.2 Y119.176 E230.31762
G1 X110 Y119.176 E233.98953
G0 F7500 X110 Y119.976
;TYPE:WALL-OUTER
G1 F150 X124.6 Y119.976 E237.87432
G1 X124.6 Y100.02 E243.18423
G1 X95.4 Y100.02 E250.9538
G1 X95.4 Y119.976 E256.26371
G1 X110 Y119.976 E260.1485
G0 F7500 X110 Y119.469
G0 X110 Y118.876
G0 X110 Y118.456
;TYPE:SKIN
G1 F150 X96.92 Y118.456 E263.62884
G1 X96.92 Y101.54 E268.12987
G1 X123.08 Y101.54 E275.09055
G1 X123.08 Y118.456 E279.59157
G1 X110 Y118.456 E283.07191
G0 F7500 X110 Y118.876
G0 X123.428 Y118.804
G0 X123.5 Y117.171
G0 X122.679 Y117.171
G1 F150 X121.794 Y118.056 E283.40494
G0 F7500 X121.794 Y118.876
G0 X120.663 Y118.876
G0 X120.663 Y118.056
G1 F150 X122.679 Y116.04 E284.16355
G0 F7500 X123.5 Y116.04
G0 X123.5 Y114.908
G0 X122.679 Y114.908
G1 F150 X119.531 Y118.056 E285.34813
G0 F7500 X119.531 Y118.876
G0 X118.4 Y118.876
G0 X118.4 Y118.056
G1 F150 X122.679 Y113.777 E286.95829
G0 F7500 X123.5 Y113.777
G0 X123.5 Y112.646
G0 X122.679 Y112.646
G1 F150 X117.269 Y118.056 E288.99405
G0 F7500 X117.269 Y118.876
G0 X116.137 Y118.876
G0 X116.137 Y118.056
G1 F150 X122.679 Y111.514 E291.45578
G0 F7500 X123.5 Y111.514
G0 X123.5 Y110.383
G0 X122.679 Y110.383
G1 F150 X115.006 Y118.056 E294.34309
G0 F7500 X115.006 Y118.876
G0 X113.875 Y118.876
G0 X113.875 Y118.056
G1 F150 X122.679 Y109.252 E297.656
G0 F7500 X123.5 Y109.252
G0 X123.5 Y108.12
G0 X122.679 Y108.12
G1 F150 X112.743 Y118.056 E301.39487
G0 F7500 X112.743 Y118.876
G0 X111.612 Y118.876
G0 X111.612 Y118.056
G1 F150 X122.679 Y106.989 E305.55933
G0 F7500 X123.5 Y106.989
G0 X123.5 Y105.857
G0 X122.679 Y105.857
G1 F150 X110.48 Y118.056 E310.14976
G0 F7500 X110.48 Y118.876
G0 X109.349 Y118.876
G0 X109.349 Y118.056
G1 F150 X122.679 Y104.726 E315.16578
G0 F7500 X123.5 Y104.726
G0 X123.5 Y103.595
G0 X122.679 Y103.595
G1 F150 X108.218 Y118.056 E320.60739
G0 F7500 X108.218 Y118.876
G0 X107.086 Y118.876
G0 X107.086 Y118.056
G1 F150 X122.679 Y102.463 E326.47496
G0 F7500 X122.071 Y101.94
G1 F150 X105.955 Y118.056 E332.53934
G0 F7500 X105.955 Y118.876
G0 X104.824 Y118.876
G0 X104.824 Y118.056
G1 F150 X120.94 Y101.94 E338.60372
G0 F7500 X120.94 Y101.12
G0 X119.809 Y101.12
G0 X119.809 Y101.94
G1 F150 X103.692 Y118.056 E344.66829
G0 F7500 X103.692 Y118.876
G0 X102.561 Y118.876
G0 X102.561 Y118.056
G1 F150 X118.677 Y101.94 E350.73266
G0 F7500 X118.677 Y101.12
G0 X117.546 Y101.12
G0 X117.546 Y101.94
G1 F150 X101.43 Y118.056 E356.79704
G0 F7500 X101.43 Y118.876
G0 X100.298 Y118.876
G0 X100.298 Y118.056
G1 F150 X116.415 Y101.94 E362.86161
G0 F7500 X116.415 Y101.12
G0 X115.283 Y101.12
G0 X115.283 Y101.94
G1 F150 X99.167 Y118.056 E368.92598
G0 F7500 X99.167 Y118.876
G0 X98.035 Y118.876
G0 X98.035 Y118.056
G1 F150 X114.152 Y101.94 E374.99055
G0 F7500 X114.152 Y101.12
G0 X113.02 Y101.12
G0 X113.02 Y101.94
G1 F150 X97.32 Y117.641 E380.89858
G0 F7500 X96.5 Y117.641
G0 X96.5 Y116.509
G0 X97.32 Y116.509
G1 F150 X111.889 Y101.94 E386.38083
G0 F7500 X111.889 Y101.12
G0 X110.758 Y101.12
G0 X110.758 Y101.94
G1 F150 X97.32 Y115.378 E391.43749
G0 F7500 X96.5 Y115.378
G0 X96.5 Y114.247
G0 X97.32 Y114.247
G1 F150 X109.626 Y101.94 E396.06837
G0 F7500 X109.626 Y101.12
G0 X108.495 Y101.12
G0 X108.495 Y101.94
G1 F150 X97.32 Y113.115 E400.27347
G0 F7500 X96.5 Y113.115
G0 X96.5 Y111.984
G0 X97.32 Y111.984
G1 F150 X107.364 Y101.94 E404.05298
G0 F7500 X107.364 Y101.12
G0 X106.232 Y101.12
G0 X106.232 Y101.94
G1 F150 X97.32 Y110.852 E407.40652
G0 F7500 X96.5 Y110.852
G0 X96.5 Y109.721
G0 X97.32 Y109.721
G1 F150 X105.101 Y101.94 E410.33448
G0 F7500 X105.101 Y101.12
G0 X103.969 Y101.12
G0 X103.969 Y101.94
G1 F150 X97.32 Y108.59 E412.83666
G0 F7500 X96.5 Y108.59
G0 X96.5 Y107.458
G0 X97.32 Y107.458
G1 F150 X102.838 Y101.94 E414.91305
G0 F7500 X102.838 Y101.12
G0 X101.707 Y101.12
G0 X101.707 Y101.94
G1 F150 X97.32 Y106.327 E416.56386
G0 F7500 X96.5 Y106.327
G0 X96.5 Y105.196
G0 X97.32 Y105.196
G1 F150 X100.575 Y101.94 E417.78889
G0 F7500 X100.575 Y101.12
G0 X99.444 Y101.12
G0 X99.444 Y101.94
G1 F150 X97.32 Y104.064 E418.58814
G0 F7500 X96.5 Y104.064
G0 X96.5 Y102.933
G0 X97.32 Y102.933
G1 F150 X98.313 Y101.94 E418.96181
G1 F1500 E412.46181
;MESH:NONMESH
G0 F300 X98.313 Y101.94 Z0.96
G0 F7500 X98.313 Y101.12
G0 X96.572 Y101.192
G0 X96.572 Y118.804
G0 X110 Y119.176
;TIME_ELAPSED:652.840292
;LAYER:2
;TYPE:WALL-INNER
;MESH:intestinal_wall_tissue.stl
G1 F1500 E418.96181
G1 F150 X123.8 Y119.176 E422.63372
G1 X123.8 Y100.82 E427.51791
G1 X96.2 Y100.82 E434.86175
G1 X96.2 Y119.176 E439.74593
G1 X110 Y119.176 E443.41785
G0 F9000 X110 Y119.976
;TYPE:WALL-OUTER
G1 F150 X124.6 Y119.976 E447.30263
G1 X124.6 Y100.02 E452.61255
G1 X95.4 Y100.02 E460.38212
G1 X95.4 Y119.976 E465.69203
G1 X110 Y119.976 E469.57681
G0 F9000 X110 Y119.469
G0 X110 Y118.876
G0 X110 Y118.456
;TYPE:SKIN
G1 F150 X96.92 Y118.456 E473.05715
G1 X96.92 Y101.54 E477.55818
G1 X123.08 Y101.54 E484.51886
G1 X123.08 Y118.456 E489.01989
G1 X110 Y118.456 E492.50023
G0 F9000 X110 Y118.876
G0 X97.691 Y118.876
G0 X97.691 Y118.056
G1 F150 X97.32 Y117.684 E492.64002
G0 F9000 X96.5 Y117.684
G0 X96.5 Y116.553
G0 X97.32 Y116.553
G1 F150 X98.822 Y118.056 E493.20541
G0 F9000 X98.822 Y118.876
G0 X99.954 Y118.876
G0 X99.954 Y118.056
G1 F150 X97.32 Y115.422 E494.19657
G0 F9000 X96.5 Y115.422
G0 X96.5 Y114.29
G0 X97.32 Y114.29
G1 F150 X101.085 Y118.056 E495.61351
G0 F9000 X101.085 Y118.876
G0 X102.217 Y118.876
G0 X102.217 Y118.056
G1 F150 X97.32 Y113.159 E497.45623
G0 F9000 X96.5 Y113.159
G0 X96.5 Y112.028
G0 X97.32 Y112.028
G1 F150 X103.348 Y118.056 E499.72454
G0 F9000 X103.348 Y118.876
G0 X104.479 Y118.876
G0 X104.479 Y118.056
G1 F150 X97.32 Y110.896 E502.41863
G0 F9000 X96.5 Y110.896
G0 X96.5 Y109.765
G0 X97.32 Y109.765
G1 F150 X105.611 Y118.056 E505.53849
G0 F9000 X105.611 Y118.876
G0 X106.742 Y118.876
G0 X106.742 Y118.056
G1 F150 X97.32 Y108.634 E509.08395
G0 F9000 X96.5 Y108.634
G0 X96.5 Y107.502
G0 X97.32 Y107.502
G1 F150 X107.873 Y118.056 E513.05518
G0 F9000 X107.873 Y118.876
G0 X109.005 Y118.876
G0 X109.005 Y118.056
G1 F150 X97.32 Y106.371 E517.4522
G0 F9000 X96.5 Y106.371
G0 X96.5 Y105.239
G0 X97.32 Y105.239
G1 F150 X110.136 Y118.056 E522.27499
G0 F9000 X110.136 Y118.876
G0 X111.267 Y118.876
G0 X111.267 Y118.056
G1 F150 X97.32 Y104.108 E527.52337
G0 F9000 X96.5 Y104.108
G0 X96.5 Y102.977
G0 X97.32 Y102.977
G1 F150 X112.399 Y118.056 E533.19753
G0 F9000 X112.399 Y118.876
G0 X113.53 Y118.876
G0 X113.53 Y118.056
G1 F150 X97.415 Y101.94 E539.26172
G0 F9000 X97.415 Y101.12
G0 X98.546 Y101.12
G0 X98.546 Y101.94
G1 F150 X114.662 Y118.056 E545.32609
G0 F9000 X114.662 Y118.876
G0 X115.793 Y118.876
G0 X115.793 Y118.056
G1 F150 X99.677 Y101.94 E551.39047
G0 F9000 X99.677 Y101.12
G0 X100.809 Y101.12
G0 X100.809 Y101.94
G1 F150 X116.924 Y118.056 E557.45466
G0 F9000 X116.924 Y118.876
G0 X118.056 Y118.876
G0 X118.056 Y118.056
G1 F150 X101.94 Y101.94 E563.51904
G0 F9000 X101.94 Y101.12
G0 X103.071 Y101.12
G0 X103.071 Y101.94
G1 F150 X119.187 Y118.056 E569.58342
G0 F9000 X119.187 Y118.876
G0 X120.318 Y118.876
G0 X120.318 Y118.056
G1 F150 X104.203 Y101.94 E575.64761
G0 F9000 X104.203 Y101.12
G0 X105.334 Y101.12
G0 X105.334 Y101.94
G1 F150 X121.45 Y118.056 E581.71198
G0 F9000 X121.45 Y118.876
G0 X122.581 Y118.876
G0 X122.581 Y118.056
G1 F150 X106.466 Y101.94 E587.77617
G0 F9000 X106.466 Y101.12
G0 X107.597 Y101.12
G0 X107.597 Y101.94
G1 F150 X122.68 Y117.023 E593.45184
G0 F9000 X123.5 Y117.023
G0 X123.5 Y115.892
G0 X122.68 Y115.892
G1 F150 X108.728 Y101.94 E598.70191
G0 F9000 X108.728 Y101.12
G0 X109.86 Y101.12
G0 X109.86 Y101.94
G1 F150 X122.68 Y114.761 E603.52621
G0 F9000 X123.5 Y114.761
G0 X123.5 Y113.629
G0 X122.68 Y113.629
G1 F150 X110.991 Y101.94 E607.92473
G0 F9000 X110.991 Y101.12
G0 X112.122 Y101.12
G0 X112.122 Y101.94
G1 F150 X122.68 Y112.498 E611.89766
G0 F9000 X123.5 Y112.498
G0 X123.5 Y111.366
G0 X122.68 Y111.366
G1 F150 X113.254 Y101.94 E615.44462
G0 F9000 X113.254 Y101.12
G0 X114.385 Y101.12
G0 X114.385 Y101.94
G1 F150 X122.68 Y110.235 E618.56599
G0 F9000 X123.5 Y110.235
G0 X123.5 Y109.104
G0 X122.68 Y109.104
G1 F150 X115.516 Y101.94 E621.26177
G0 F9000 X115.516 Y101.12
G0 X116.648 Y101.12
G0 X116.648 Y101.94
G1 F150 X122.68 Y107.972 E623.53158
G0 F9000 X123.5 Y107.972
G0 X123.5 Y106.841
G0 X122.68 Y106.841
G1 F150 X117.779 Y101.94 E625.37581
G0 F9000 X117.779 Y101.12
G0 X118.911 Y101.12
G0 X118.911 Y101.94
G1 F150 X122.68 Y105.71 E626.79425
G0 F9000 X123.5 Y105.71
G0 X123.5 Y104.578
G0 X122.68 Y104.578
G1 F150 X120.042 Y101.94 E627.78692
G0 F9000 X120.042 Y101.12
G0 X121.173 Y101.12
G0 X121.173 Y101.94
G1 F150 X122.68 Y103.447 E628.354
G0 F9000 X123.5 Y103.447
G0 X123.5 Y102.316
G0 X122.68 Y102.316
G1 F150 X122.305 Y101.94 E628.4953
G1 F1500 E621.9953
;MESH:NONMESH
G0 F300 X122.305 Y101.94 Z1.28
G0 F9000 X122.305 Y101.12
G0 X102.221 Y101.22
G0 X102.221 Y103.99
;TIME_ELAPSED:977.122936
;LAYER:3
;TYPE:WALL-OUTER
;MESH:intestinal_wall_tissue.stl
G1 F1500 E628.4953
G1 F163.5 X102.176 Y104.069 E628.51749
G1 X102.085 Y104.069 E628.53971
G1 X102.039 Y103.99 E628.56202
G1 X102.084 Y103.911 E628.58422
G1 X102.175 Y103.911 E628.60644
G1 X102.221 Y103.99 E628.62875
G1 F1500 E622.12875
G0 F9000 X103.941 Y102.912
G1 F1500 E628.62875
G1 F167.1 X103.897 Y102.989 E628.64993
G1 X103.808 Y102.989 E628.67119
G1 X103.763 Y102.912 E628.69248
G1 X103.807 Y102.835 E628.71366
G1 X103.896 Y102.835 E628.73492
G1 X103.941 Y102.912 E628.75621
G1 F1500 E622.25621
G0 F9000 X106.055 Y106.253
G0 X106.184 Y106.635
;TYPE:WALL-INNER
G1 F1500 E628.75621
G1 F143.4 X106.505 Y106.543 E628.84918
G1 F1500 E622.34918
G0 F9000 X106.055 Y106.253
G0 X96.81 Y101.943
G0 X97.726 Y101.853
G1 F1500 E628.84918
G1 F100.3 X97.477 Y102.072 E628.98108
G1 F96 X97.419 Y102.158 E629.02421
G1 F101.6 X97.915 Y101.631 E629.30848
G1 F106.5 X97.726 Y101.853 E629.41777
G0 F9000 X97.111 Y102.363
G0 X96.839 Y103.488
G1 F138.1 X97.198 Y103.416 E629.5236
G1 X97.271 Y103.281 E629.56796
G1 X97.448 Y103.063 E629.64912
G1 F133.6 X97.404 Y102.762 E629.73998
G1 F117.9 X97.373 Y102.446 E629.84748
G1 F101.5 X97.419 Y102.158 E629.96214
G1 X97.167 Y102.306 E630.07703
G1 F121 X96.741 Y102.498 E630.2312
G1 F137.5 X96.48 Y102.631 E630.31626
G1 F137.6 X96.591 Y103.043 E630.44001
G1 F137.9 X96.536 Y103.381 E630.5391
